; generated by PrusaSlicer 2.5.0+win64 on 2022-11-14 at 14:54:02 UTC


;
;
; 

; external perimeters extrusion width = 0.65mm
; perimeters extrusion width = 0.65mm
; infill extrusion width = 0.65mm
; solid infill extrusion width = 0.65mm
; top infill extrusion width = 0.60mm
; support material extrusion width = 0.55mm
; first layer extrusion width = 0.65mm

M73 P0 R71
M73 Q0 S72
M201 X1000 Y1000 Z200 E5000 ; sets maximum accelerations, mm/sec^2
M203 X200 Y200 Z12 E120 ; sets maximum feedrates, mm / sec
M204 P1250 R1250 T1250 ; sets acceleration (P, T) and retract acceleration (R), mm/sec^2
M205 X8.00 Y8.00 Z0.40 E4.50 ; sets the jerk limits, mm/sec
M205 S0 T0 ; sets the minimum extruding and travel feed rate, mm/sec
M107
;TYPE:Custom
M862.3 P "MK3S" ; printer model check
M862.1 P0.6 ; nozzle diameter check
M115 U3.11.0 ; tell printer latest fw version
G90 ; use absolute coordinates
M83 ; extruder relative mode
M104 S240 ; set extruder temp
M140 S85 ; set bed temp
M190 S85 ; wait for bed temp
M109 S240 ; wait for extruder temp
G28 W ; home all without mesh bed level
G80 ; mesh bed leveling

G1 Z0.2 F720
G1 Y-3 F1000 ; go outside print area
G92 E0
G1 X60 E9 F1000 ; intro line
G1 X100 E12.5 F1000 ; intro line

G92 E0
M221 S95
G21 ; set units to millimeters
G90 ; use absolute coordinates
M83 ; use relative distances for extrusion
M900 K0.04 ; Filament gcode LA 1.5
M900 K24 ; Filament gcode LA 1.0
M107
;LAYER_CHANGE
;Z:0.2
;HEIGHT:0.2
;BEFORE_LAYER_CHANGE
G92 E0.0
;0.2


G1 E-1 F2100
G1 Z.2 F720
;AFTER_LAYER_CHANGE
;0.2
G1 Z.4
G1 X90.235 Y63.625 F10800
G1 Z.2 F720
G1 E1 F1500
M204 S800
;TYPE:Skirt/Brim
;WIDTH:0.65
G1 F1200
G1 X91.294 Y62.663 E.0722
G1 X92.45 Y62.393 E.05992
G1 X157.55 Y62.393 E3.28617
G1 X158.925 Y62.785 E.0722
G1 X159.887 Y63.844 E.0722
G1 X160.157 Y65 E.05992
G1 X160.157 Y145 E4.03831
G1 X159.765 Y146.375 E.0722
G1 X158.706 Y147.337 E.0722
G1 X157.55 Y147.607 E.05992
G1 X92.45 Y147.607 E3.28617
G1 X91.075 Y147.215 E.0722
G1 X90.113 Y146.156 E.0722
G1 X89.843 Y145 E.05992
G1 X89.843 Y65 E4.03831
G1 X90.211 Y63.711 E.06766
M204 S1000
; printing object boitierYOUSS id:0 copy 0
;WIPE_START
G1 F8640
G1 X91.294 Y62.663 E-.34808
G1 X92.45 Y62.393 E-.27408
G1 X93.87 Y62.393 E-.32784
;WIPE_END
G1 E-.05 F2100
G1 Z.4 F720
G1 X156.418 Y143.868 F10800
G1 Z.2 F720
G1 E1 F1500
M204 S800
;TYPE:Perimeter
;WIDTH:0.649999
G1 F1200
G1 X93.582 Y143.868 E3.17188
G1 X93.582 Y66.132 E3.92401
M73 P0 R70
G1 X156.418 Y66.132 E3.17188
G1 X156.418 Y143.778 E3.91947
M204 S1000
G1 X157.025 Y144.475 F10800
M204 S800
;TYPE:External perimeter
M73 Q0 S71
G1 F1200
G1 X92.975 Y144.475 E3.23317
G1 X92.975 Y65.525 E3.9853
G1 X157.025 Y65.525 E3.23317
M73 P1 R70
M73 Q1 S71
G1 X157.025 Y144.385 E3.98076
M204 S1000
G1 X156.451 Y144.3 F10800
;WIPE_START
G1 F8640
G1 X152.911 Y144.391 E-.95
;WIPE_END
G1 E-.05 F2100
G1 Z.4 F720
G1 X155.008 Y66.314 F10800
G1 Z.2 F720
G1 E1 F1500
M204 S800
;TYPE:Solid infill
;WIDTH:0.650097
G1 F1200
G1 X155.963 Y67.268 E.06813
G1 X155.963 Y68.127 E.04335
G1 X154.423 Y66.587 E.10993
G1 X153.564 Y66.587 E.04335
G1 X155.963 Y68.986 E.17124
G1 X155.963 Y69.844 E.04335
G1 X152.706 Y66.587 E.23255
G1 X151.847 Y66.587 E.04335
G1 X155.963 Y70.703 E.29386
G1 X155.963 Y71.562 E.04335
G1 X150.988 Y66.587 E.35517
G1 X150.13 Y66.587 E.04335
G1 X155.963 Y72.42 E.41648
G1 X155.963 Y73.279 E.04335
G1 X149.271 Y66.587 E.47779
G1 X148.412 Y66.587 E.04335
G1 X155.963 Y74.138 E.5391
G1 X155.963 Y74.996 E.04335
G1 X147.554 Y66.587 E.60041
G1 X146.695 Y66.587 E.04335
G1 X155.963 Y75.855 E.66171
G1 X155.963 Y76.714 E.04335
G1 X145.836 Y66.587 E.72302
G1 X144.977 Y66.587 E.04335
G1 X155.963 Y77.573 E.78433
G1 X155.963 Y78.431 E.04335
G1 X144.119 Y66.587 E.84564
G1 X143.26 Y66.587 E.04335
G1 X155.963 Y79.29 E.90695
G1 X155.963 Y80.149 E.04335
G1 X142.401 Y66.587 E.96826
G1 X141.543 Y66.587 E.04335
G1 X155.963 Y81.007 E1.02957
G1 X155.963 Y81.866 E.04335
G1 X140.684 Y66.587 E1.09088
G1 X139.825 Y66.587 E.04335
G1 X155.963 Y82.725 E1.15219
G1 X155.963 Y83.583 E.04335
G1 X138.967 Y66.587 E1.2135
G1 X138.108 Y66.587 E.04335
G1 X155.963 Y84.442 E1.2748
G1 X155.963 Y85.301 E.04335
G1 X137.249 Y66.587 E1.33611
G1 X136.391 Y66.587 E.04335
G1 X155.963 Y86.159 E1.39742
G1 X155.963 Y87.018 E.04335
G1 X135.532 Y66.587 E1.45873
G1 X134.673 Y66.587 E.04335
G1 X155.963 Y87.877 E1.52004
G1 X155.963 Y88.735 E.04335
G1 X133.815 Y66.587 E1.58135
G1 X132.956 Y66.587 E.04335
G1 X155.963 Y89.594 E1.64266
G1 X155.963 Y90.453 E.04335
G1 X132.097 Y66.587 E1.70397
G1 X131.239 Y66.587 E.04335
G1 X155.963 Y91.311 E1.76528
G1 X155.963 Y92.17 E.04335
G1 X130.38 Y66.587 E1.82659
G1 X129.521 Y66.587 E.04335
G1 X155.963 Y93.029 E1.8879
G1 X155.963 Y93.887 E.04335
G1 X128.663 Y66.587 E1.9492
G1 X127.804 Y66.587 E.04335
M73 P2 R69
G1 X155.963 Y94.746 E2.01051
G1 X155.963 Y95.605 E.04335
M73 Q2 S71
G1 X126.945 Y66.587 E2.07182
G1 X126.087 Y66.587 E.04335
G1 X155.963 Y96.463 E2.13313
G1 X155.963 Y97.322 E.04335
G1 X125.228 Y66.587 E2.19444
G1 X124.369 Y66.587 E.04335
M73 Q2 S70
G1 X155.963 Y98.181 E2.25575
G1 X155.963 Y99.039 E.04335
G1 X123.511 Y66.587 E2.31706
G1 X122.652 Y66.587 E.04335
G1 X155.963 Y99.898 E2.37837
G1 X155.963 Y100.757 E.04335
G1 X121.793 Y66.587 E2.43968
G1 X120.934 Y66.587 E.04335
G1 X155.963 Y101.616 E2.50099
G1 X155.963 Y102.474 E.04335
G1 X120.076 Y66.587 E2.56229
G1 X119.217 Y66.587 E.04335
G1 X155.963 Y103.333 E2.6236
G1 X155.963 Y104.192 E.04335
G1 X118.358 Y66.587 E2.68491
G1 X117.5 Y66.587 E.04335
G1 X155.963 Y105.05 E2.74622
G1 X155.963 Y105.909 E.04335
G1 X116.641 Y66.587 E2.80753
G1 X115.782 Y66.587 E.04335
G1 X155.963 Y106.768 E2.86884
G1 X155.963 Y107.626 E.04335
G1 X114.924 Y66.587 E2.93015
G1 X114.065 Y66.587 E.04335
G1 X155.963 Y108.485 E2.99146
G1 X155.963 Y109.344 E.04335
M73 P3 R69
G1 X113.206 Y66.587 E3.05277
G1 X112.348 Y66.587 E.04335
M73 Q3 S70
G1 X155.963 Y110.202 E3.11408
G1 X155.963 Y111.061 E.04335
G1 X111.489 Y66.587 E3.17539
G1 X110.63 Y66.587 E.04335
G1 X155.963 Y111.92 E3.23669
G1 X155.963 Y112.778 E.04335
G1 X109.772 Y66.587 E3.298
G1 X108.913 Y66.587 E.04335
M73 P3 R68
G1 X155.963 Y113.637 E3.35931
G1 X155.963 Y114.496 E.04335
G1 X108.054 Y66.587 E3.42062
G1 X107.196 Y66.587 E.04335
G1 X155.963 Y115.354 E3.48193
G1 X155.963 Y116.213 E.04335
M73 Q3 S69
G1 X106.337 Y66.587 E3.54324
G1 X105.478 Y66.587 E.04335
G1 X155.963 Y117.072 E3.60455
G1 X155.963 Y117.93 E.04335
G1 X104.62 Y66.587 E3.66586
G1 X103.761 Y66.587 E.04335
G1 X155.963 Y118.789 E3.72717
G1 X155.963 Y119.648 E.04335
G1 X102.902 Y66.587 E3.78848
G1 X102.044 Y66.587 E.04335
M73 P4 R68
M73 Q4 S69
G1 X155.963 Y120.506 E3.84979
G1 X155.963 Y121.365 E.04335
G1 X101.185 Y66.587 E3.91109
G1 X100.326 Y66.587 E.04335
G1 X155.963 Y122.224 E3.9724
G1 X155.963 Y123.082 E.04335
G1 X99.468 Y66.587 E4.03371
G1 X98.609 Y66.587 E.04335
G1 X155.963 Y123.941 E4.09502
G1 X155.963 Y124.8 E.04335
G1 X97.75 Y66.587 E4.15633
G1 X96.892 Y66.587 E.04335
G1 X155.963 Y125.658 E4.21764
G1 X155.963 Y126.517 E.04335
G1 X96.033 Y66.587 E4.27895
G1 X95.174 Y66.587 E.04335
M73 P4 R67
G1 X155.963 Y127.376 E4.34026
G1 X155.963 Y128.235 E.04335
G1 X94.315 Y66.587 E4.40157
G1 X94.037 Y66.587 E.01404
M73 P5 R67
M73 Q4 S68
G1 X94.037 Y67.168 E.02931
G1 X155.963 Y129.093 E4.42142
G1 X155.963 Y129.952 E.04335
M73 Q5 S68
G1 X94.037 Y68.027 E4.42142
G1 X94.037 Y68.885 E.04335
G1 X155.963 Y130.811 E4.42142
G1 X155.963 Y131.669 E.04335
G1 X94.037 Y69.744 E4.42142
G1 X94.037 Y70.603 E.04335
G1 X155.963 Y132.528 E4.42142
G1 X155.963 Y133.387 E.04335
G1 X94.037 Y71.461 E4.42142
G1 X94.037 Y72.32 E.04335
G1 X155.963 Y134.245 E4.42142
G1 X155.963 Y135.104 E.04335
G1 X94.037 Y73.179 E4.42142
G1 X94.037 Y74.037 E.04335
G1 X155.963 Y135.963 E4.42142
G1 X155.963 Y136.821 E.04335
G1 X94.037 Y74.896 E4.42142
G1 X94.037 Y75.755 E.04335
M73 P6 R67
G1 X155.963 Y137.68 E4.42142
G1 X155.963 Y138.539 E.04335
M73 Q6 S68
G1 X94.037 Y76.613 E4.42142
G1 X94.037 Y77.472 E.04335
M73 P6 R66
G1 X155.963 Y139.397 E4.42142
G1 X155.963 Y140.256 E.04335
G1 X94.037 Y78.331 E4.42142
G1 X94.037 Y79.189 E.04335
M73 Q6 S67
G1 X155.963 Y141.115 E4.42142
G1 X155.963 Y141.973 E.04335
G1 X94.037 Y80.048 E4.42142
G1 X94.037 Y80.907 E.04335
G1 X155.963 Y142.832 E4.42142
G1 X155.963 Y143.413 E.02931
G1 X155.685 Y143.413 E.01404
G1 X94.037 Y81.765 E4.40157
G1 X94.037 Y82.624 E.04335
G1 X154.826 Y143.413 E4.34026
G1 X153.967 Y143.413 E.04335
G1 X94.037 Y83.483 E4.27895
G1 X94.037 Y84.342 E.04335
M73 P7 R66
G1 X153.108 Y143.413 E4.21764
G1 X152.25 Y143.413 E.04335
M73 Q7 S67
G1 X94.037 Y85.2 E4.15633
G1 X94.037 Y86.059 E.04335
G1 X151.391 Y143.413 E4.09502
G1 X150.532 Y143.413 E.04335
G1 X94.037 Y86.918 E4.03371
G1 X94.037 Y87.776 E.04335
G1 X149.674 Y143.413 E3.9724
G1 X148.815 Y143.413 E.04335
G1 X94.037 Y88.635 E3.91109
G1 X94.037 Y89.494 E.04335
M73 P7 R65
G1 X147.956 Y143.413 E3.84979
G1 X147.098 Y143.413 E.04335
G1 X94.037 Y90.352 E3.78848
G1 X94.037 Y91.211 E.04335
M73 Q7 S66
G1 X146.239 Y143.413 E3.72717
G1 X145.38 Y143.413 E.04335
G1 X94.037 Y92.07 E3.66586
G1 X94.037 Y92.928 E.04335
M73 P8 R65
G1 X144.522 Y143.413 E3.60455
G1 X143.663 Y143.413 E.04335
G1 X94.037 Y93.787 E3.54324
G1 X94.037 Y94.646 E.04335
M73 Q8 S66
G1 X142.804 Y143.413 E3.48193
G1 X141.946 Y143.413 E.04335
G1 X94.037 Y95.504 E3.42062
G1 X94.037 Y96.363 E.04335
G1 X141.087 Y143.413 E3.35931
G1 X140.228 Y143.413 E.04335
G1 X94.037 Y97.222 E3.298
G1 X94.037 Y98.08 E.04335
G1 X139.37 Y143.413 E3.23669
G1 X138.511 Y143.413 E.04335
G1 X94.037 Y98.939 E3.17539
G1 X94.037 Y99.798 E.04335
G1 X137.652 Y143.413 E3.11408
G1 X136.794 Y143.413 E.04335
G1 X94.037 Y100.656 E3.05277
G1 X94.037 Y101.515 E.04335
G1 X135.935 Y143.413 E2.99146
G1 X135.076 Y143.413 E.04335
G1 X94.037 Y102.374 E2.93015
G1 X94.037 Y103.232 E.04335
G1 X134.218 Y143.413 E2.86884
G1 X133.359 Y143.413 E.04335
M73 P9 R64
G1 X94.037 Y104.091 E2.80753
G1 X94.037 Y104.95 E.04335
G1 X132.5 Y143.413 E2.74622
G1 X131.642 Y143.413 E.04335
M73 Q9 S66
G1 X94.037 Y105.808 E2.68491
G1 X94.037 Y106.667 E.04335
M73 Q9 S65
G1 X130.783 Y143.413 E2.6236
G1 X129.924 Y143.413 E.04335
G1 X94.037 Y107.526 E2.5623
G1 X94.037 Y108.384 E.04335
G1 X129.066 Y143.413 E2.50099
G1 X128.207 Y143.413 E.04335
G1 X94.037 Y109.243 E2.43968
G1 X94.037 Y110.102 E.04335
G1 X127.348 Y143.413 E2.37837
G1 X126.489 Y143.413 E.04335
G1 X94.037 Y110.961 E2.31706
G1 X94.037 Y111.819 E.04335
G1 X125.631 Y143.413 E2.25575
G1 X124.772 Y143.413 E.04335
G1 X94.037 Y112.678 E2.19444
G1 X94.037 Y113.537 E.04335
G1 X123.913 Y143.413 E2.13313
G1 X123.055 Y143.413 E.04335
G1 X94.037 Y114.395 E2.07182
G1 X94.037 Y115.254 E.04335
G1 X122.196 Y143.413 E2.01051
G1 X121.337 Y143.413 E.04335
G1 X94.037 Y116.113 E1.9492
G1 X94.037 Y116.971 E.04335
G1 X120.479 Y143.413 E1.8879
G1 X119.62 Y143.413 E.04335
G1 X94.037 Y117.83 E1.82659
G1 X94.037 Y118.689 E.04335
G1 X118.761 Y143.413 E1.76528
G1 X117.903 Y143.413 E.04335
G1 X94.037 Y119.547 E1.70397
G1 X94.037 Y120.406 E.04335
M73 P10 R64
G1 X117.044 Y143.413 E1.64266
G1 X116.185 Y143.413 E.04335
G1 X94.037 Y121.265 E1.58135
G1 X94.037 Y122.123 E.04335
G1 X115.327 Y143.413 E1.52004
G1 X114.468 Y143.413 E.04335
G1 X94.037 Y122.982 E1.45873
G1 X94.037 Y123.841 E.04335
M73 Q10 S65
G1 X113.609 Y143.413 E1.39742
G1 X112.751 Y143.413 E.04335
G1 X94.037 Y124.699 E1.33611
G1 X94.037 Y125.558 E.04335
G1 X111.892 Y143.413 E1.27481
G1 X111.033 Y143.413 E.04335
G1 X94.037 Y126.417 E1.2135
G1 X94.037 Y127.275 E.04335
G1 X110.175 Y143.413 E1.15219
G1 X109.316 Y143.413 E.04335
G1 X94.037 Y128.134 E1.09088
G1 X94.037 Y128.993 E.04335
G1 X108.457 Y143.413 E1.02957
G1 X107.599 Y143.413 E.04335
G1 X94.037 Y129.851 E.96826
G1 X94.037 Y130.71 E.04335
M73 P10 R63
G1 X106.74 Y143.413 E.90695
G1 X105.881 Y143.413 E.04335
G1 X94.037 Y131.569 E.84564
G1 X94.037 Y132.427 E.04335
G1 X105.023 Y143.413 E.78433
G1 X104.164 Y143.413 E.04335
G1 X94.037 Y133.286 E.72302
G1 X94.037 Y134.145 E.04335
G1 X103.305 Y143.413 E.66171
G1 X102.446 Y143.413 E.04335
G1 X94.037 Y135.004 E.60041
G1 X94.037 Y135.862 E.04335
G1 X101.588 Y143.413 E.5391
G1 X100.729 Y143.413 E.04335
G1 X94.037 Y136.721 E.47779
G1 X94.037 Y137.58 E.04335
G1 X99.87 Y143.413 E.41648
G1 X99.012 Y143.413 E.04335
G1 X94.037 Y138.438 E.35517
G1 X94.037 Y139.297 E.04335
G1 X98.153 Y143.413 E.29386
G1 X97.294 Y143.413 E.04335
G1 X94.037 Y140.156 E.23255
G1 X94.037 Y141.014 E.04335
G1 X96.436 Y143.413 E.17124
G1 X95.577 Y143.413 E.04335
M73 Q10 S64
G1 X94.037 Y141.873 E.10993
G1 X94.037 Y142.732 E.04335
G1 X94.992 Y143.686 E.06813
M204 S1000
; stop printing object boitierYOUSS id:0 copy 0
;LAYER_CHANGE
;Z:0.4
;HEIGHT:0.2
;BEFORE_LAYER_CHANGE
G92 E0.0
;0.4


;WIPE_START
G1 F8640
G1 X94.037 Y142.732 E-.31159
G1 X94.037 Y141.873 E-.19827
G1 X95.385 Y143.221 E-.44014
;WIPE_END
G1 E-.05 F2100
G1 Z.4 F720
;AFTER_LAYER_CHANGE
;0.4
M104 S250 ; set temperature
M140 S90 ; set bed temperature
G1 Z.6
G1 X95.385 Y147.607 F10800
G1 Z.4 F720
G1 E1 F1500
;TYPE:Skirt/Brim
;WIDTH:0.65
G1 F3000
G1 X92.45 Y147.607 E.14817
G1 X91.075 Y147.215 E.0722
G1 X90.113 Y146.156 E.0722
G1 X89.843 Y145 E.05992
G1 X89.843 Y65 E4.03831
G1 X90.235 Y63.625 E.0722
G1 X91.294 Y62.663 E.0722
G1 X92.45 Y62.393 E.05992
G1 X157.55 Y62.393 E3.28617
G1 X158.925 Y62.785 E.0722
G1 X159.887 Y63.844 E.0722
G1 X160.157 Y65 E.05992
G1 X160.157 Y145 E4.03831
G1 X159.765 Y146.375 E.0722
G1 X158.706 Y147.337 E.0722
G1 X157.55 Y147.607 E.05992
G1 X95.475 Y147.607 E3.13346
; printing object boitierYOUSS id:0 copy 0
;WIPE_START
G1 F8640
G1 X92.45 Y147.607 E-.69854
G1 X91.403 Y147.308 E-.25146
;WIPE_END
G1 E-.05 F2100
G1 Z.6 F720
G1 X156.618 Y144.068 F10800
G1 Z.4 F720
G1 E1 F1500
M204 S800
;TYPE:Perimeter
;WIDTH:0.649999
G1 F2700
G1 X93.382 Y144.068 E3.19207
G1 X93.382 Y65.932 E3.94421
G1 X156.618 Y65.932 E3.19207
G1 X156.618 Y143.978 E3.93966
M204 S1000
G1 X157.225 Y144.675 F10800
M204 S800
;TYPE:External perimeter
G1 F2100
G1 X92.775 Y144.675 E3.25336
G1 X92.775 Y65.325 E4.00549
G1 X157.225 Y65.325 E3.25336
M73 P11 R63
G1 X157.225 Y144.585 E4.00095
M204 S1000
G1 X156.651 Y144.5 F10800
;WIPE_START
G1 F8640
G1 X153.111 Y144.591 E-.95
;WIPE_END
G1 E-.05 F2100
G1 Z.6 F720
G1 X156.436 Y142.651 F10800
G1 Z.4 F720
G1 E1 F1500
;TYPE:Solid infill
;WIDTH:0.653567
G1 F4200
G1 X155.474 Y143.613 E.06905
G1 X154.611 Y143.613 E.04385
G1 X156.163 Y142.061 E.11144
G1 X156.163 Y141.197 E.04385
G1 X153.747 Y143.613 E.17345
G1 X152.883 Y143.613 E.04385
G1 X156.163 Y140.333 E.23547
G1 X156.163 Y139.47 E.04385
G1 X152.02 Y143.613 E.29748
G1 X151.156 Y143.613 E.04385
G1 X156.163 Y138.606 E.35949
G1 X156.163 Y137.743 E.04385
G1 X150.293 Y143.613 E.4215
G1 X149.429 Y143.613 E.04385
G1 X156.163 Y136.879 E.48351
G1 X156.163 Y136.016 E.04385
G1 X148.566 Y143.613 E.54552
G1 X147.702 Y143.613 E.04385
M73 Q11 S64
G1 X156.163 Y135.152 E.60754
G1 X156.163 Y134.288 E.04385
G1 X146.838 Y143.613 E.66955
G1 X145.975 Y143.613 E.04385
G1 X156.163 Y133.425 E.73156
G1 X156.163 Y132.561 E.04385
G1 X145.111 Y143.613 E.79357
G1 X144.248 Y143.613 E.04385
G1 X156.163 Y131.698 E.85558
G1 X156.163 Y130.834 E.04385
G1 X143.384 Y143.613 E.9176
G1 X142.52 Y143.613 E.04385
G1 X156.163 Y129.97 E.97961
G1 X156.163 Y129.107 E.04385
G1 X141.657 Y143.613 E1.04162
G1 X140.793 Y143.613 E.04385
G1 X156.163 Y128.243 E1.10363
G1 X156.163 Y127.38 E.04385
G1 X139.93 Y143.613 E1.16564
G1 X139.066 Y143.613 E.04385
G1 X156.163 Y126.516 E1.22765
G1 X156.163 Y125.653 E.04385
G1 X138.203 Y143.613 E1.28967
G1 X137.339 Y143.613 E.04385
G1 X156.163 Y124.789 E1.35168
G1 X156.163 Y123.925 E.04385
G1 X136.475 Y143.613 E1.41369
G1 X135.612 Y143.613 E.04385
G1 X156.163 Y123.062 E1.4757
G1 X156.163 Y122.198 E.04385
G1 X134.748 Y143.613 E1.53771
G1 X133.885 Y143.613 E.04385
G1 X156.163 Y121.335 E1.59973
G1 X156.163 Y120.471 E.04385
G1 X133.021 Y143.613 E1.66174
G1 X132.157 Y143.613 E.04385
G1 X156.163 Y119.607 E1.72375
G1 X156.163 Y118.744 E.04385
G1 X131.294 Y143.613 E1.78576
G1 X130.43 Y143.613 E.04385
G1 X156.163 Y117.88 E1.84777
G1 X156.163 Y117.017 E.04385
G1 X129.567 Y143.613 E1.90978
