; generated by PrusaSlicer 2.5.0+win64 on 2022-10-19 at 09:09:11 UTC


;
;
; 

; external perimeters extrusion width = 0.65mm
; perimeters extrusion width = 0.65mm
; infill extrusion width = 0.65mm
; solid infill extrusion width = 0.65mm
; top infill extrusion width = 0.60mm
; support material extrusion width = 0.55mm
; first layer extrusion width = 0.65mm

M73 P0 R142
M73 Q0 S143
M201 X1000 Y1000 Z200 E5000 ; sets maximum accelerations, mm/sec^2
M203 X200 Y200 Z12 E120 ; sets maximum feedrates, mm / sec
M204 P1250 R1250 T1250 ; sets acceleration (P, T) and retract acceleration (R), mm/sec^2
M205 X8.00 Y8.00 Z0.40 E4.50 ; sets the jerk limits, mm/sec
M205 S0 T0 ; sets the minimum extruding and travel feed rate, mm/sec
M107
;TYPE:Custom
M862.3 P "MK3S" ; printer model check
M862.1 P0.6 ; nozzle diameter check
M115 U3.11.0 ; tell printer latest fw version
G90 ; use absolute coordinates
M83 ; extruder relative mode
M104 S215 ; set extruder temp
M140 S60 ; set bed temp
M190 S60 ; wait for bed temp
M109 S215 ; wait for extruder temp
G28 W ; home all without mesh bed level
G80 ; mesh bed leveling

G1 Z0.2 F720
G1 Y-3 F1000 ; go outside print area
G92 E0
G1 X60 E9 F1000 ; intro line
G1 X100 E12.5 F1000 ; intro line

G92 E0
M221 S95
G21 ; set units to millimeters
G90 ; use absolute coordinates
M83 ; use relative distances for extrusion
M900 K0.04 ; Filament gcode LA 1.5
M900 K18 ; Filament gcode LA 1.0
M107
;LAYER_CHANGE
;Z:0.2
;HEIGHT:0.2
;BEFORE_LAYER_CHANGE
G92 E0.0
;0.2


G1 E-.8 F2100
G1 Z.4 F720
;AFTER_LAYER_CHANGE
;0.2
G1 X84.785 Y57.625 F10800
G1 Z.2 F720
G1 E.8 F1500
M204 S800
;TYPE:Skirt/Brim
;WIDTH:0.65
G1 F1200
G1 X86.343 Y56.477 E.09767
G1 X103.865 Y51.914 E.91399
G1 X104.522 Y51.83 E.03344
G1 X152.999 Y51.83 E2.44708
G1 X154.081 Y52.065 E.0559
G1 X164.082 Y56.628 E.55489
G1 X165.171 Y57.556 E.0722
G1 X165.607 Y59 E.07615
G1 X165.607 Y151 E4.64406
G1 X165.215 Y152.375 E.0722
M73 P0 R141
G1 X164.156 Y153.337 E.0722
G1 X163 Y153.607 E.05992
G1 X87 Y153.607 E3.83639
G1 X85.625 Y153.215 E.0722
G1 X84.663 Y152.156 E.0722
G1 X84.393 Y151 E.05992
G1 X84.393 Y59 E4.64406
G1 X84.761 Y57.711 E.06766
M204 S1000
; printing object BoitierVF id:0 copy 0
;WIPE_START
G1 F8640
G1 X86.343 Y56.477 E-.46336
G1 X87.586 Y56.153 E-.29664
;WIPE_END
G1 E-.04 F2100
G1 Z.6 F720
G1 X122.914 Y58.155 F10800
G1 Z.2 F720
G1 E.8 F1500
M204 S800
;TYPE:Support material
G1 F1200
G1 X104.522 Y58.155 E.92842
G1 X104.522 Y54.437 E.18768
G1 X122.914 Y54.437 E.92842
G1 X122.914 Y58.064 E.18308
M204 S1000
G1 X122.302 Y57.882 F10800
M204 S800
G1 F1200
G1 X122.302 Y54.983 E.14631
G1 X121.627 Y54.983 E.03405
G1 X121.627 Y57.609 E.13252
G1 X120.953 Y57.609 E.03405
G1 X120.953 Y54.983 E.13252
G1 X120.278 Y54.983 E.03405
G1 X120.278 Y57.609 E.13252
G1 X119.604 Y57.609 E.03405
G1 X119.604 Y54.983 E.13252
G1 X118.929 Y54.983 E.03405
G1 X118.929 Y57.609 E.13252
G1 X118.255 Y57.609 E.03405
G1 X118.255 Y54.983 E.13252
G1 X117.58 Y54.983 E.03405
G1 X117.58 Y57.609 E.13252
G1 X116.906 Y57.609 E.03405
G1 X116.906 Y54.983 E.13252
G1 X116.231 Y54.983 E.03405
G1 X116.231 Y57.609 E.13252
G1 X115.557 Y57.609 E.03405
G1 X115.557 Y54.983 E.13252
G1 X114.882 Y54.983 E.03405
G1 X114.882 Y57.609 E.13252
G1 X114.207 Y57.609 E.03405
G1 X114.207 Y54.983 E.13252
G1 X113.533 Y54.983 E.03405
G1 X113.533 Y57.609 E.13252
G1 X112.858 Y57.609 E.03405
G1 X112.858 Y54.983 E.13252
G1 X112.184 Y54.983 E.03405
G1 X112.184 Y57.609 E.13252
G1 X111.509 Y57.609 E.03405
G1 X111.509 Y54.983 E.13252
G1 X110.835 Y54.983 E.03405
G1 X110.835 Y57.609 E.13252
G1 X110.16 Y57.609 E.03405
G1 X110.16 Y54.983 E.13252
G1 X109.486 Y54.983 E.03405
G1 X109.486 Y57.609 E.13252
G1 X108.811 Y57.609 E.03405
G1 X108.811 Y54.983 E.13252
G1 X108.137 Y54.983 E.03405
G1 X108.137 Y57.609 E.13252
G1 X107.462 Y57.609 E.03405
G1 X107.462 Y54.983 E.13252
G1 X106.788 Y54.983 E.03405
G1 X106.788 Y57.609 E.13252
G1 X106.113 Y57.609 E.03405
G1 X106.113 Y54.983 E.13252
G1 X105.439 Y54.983 E.03405
G1 X105.439 Y57.882 E.14631
M204 S1000
;WIPE_START
G1 F8640
G1 X105.439 Y54.983 E-.66925
G1 X105.832 Y54.983 E-.09075
;WIPE_END
G1 E-.04 F2100
G1 Z.6 F720
G1 X152.999 Y58.155 F10800
G1 Z.2 F720
G1 E.8 F1500
M204 S800
G1 F1200
G1 X134.607 Y58.155 E.92842
G1 X134.607 Y54.437 E.18768
G1 X152.999 Y54.437 E.92842
G1 X152.999 Y58.064 E.18308
M204 S1000
G1 X151.981 Y57.882 F10800
M204 S800
G1 F1200
G1 X151.981 Y54.983 E.14631
G1 X151.307 Y54.983 E.03405
G1 X151.307 Y57.609 E.13252
G1 X150.632 Y57.609 E.03405
G1 X150.632 Y54.983 E.13252
G1 X149.958 Y54.983 E.03405
G1 X149.958 Y57.609 E.13252
G1 X149.283 Y57.609 E.03405
G1 X149.283 Y54.983 E.13252
G1 X148.609 Y54.983 E.03405
G1 X148.609 Y57.609 E.13252
G1 X147.934 Y57.609 E.03405
G1 X147.934 Y54.983 E.13252
G1 X147.26 Y54.983 E.03405
G1 X147.26 Y57.609 E.13252
G1 X146.585 Y57.609 E.03405
G1 X146.585 Y54.983 E.13252
G1 X145.91 Y54.983 E.03405
G1 X145.91 Y57.609 E.13252
G1 X145.236 Y57.609 E.03405
G1 X145.236 Y54.983 E.13252
G1 X144.561 Y54.983 E.03405
G1 X144.561 Y57.609 E.13252
G1 X143.887 Y57.609 E.03405
G1 X143.887 Y54.983 E.13252
G1 X143.212 Y54.983 E.03405
G1 X143.212 Y57.609 E.13252
G1 X142.538 Y57.609 E.03405
G1 X142.538 Y54.983 E.13252
G1 X141.863 Y54.983 E.03405
G1 X141.863 Y57.609 E.13252
G1 X141.189 Y57.609 E.03405
G1 X141.189 Y54.983 E.13252
G1 X140.514 Y54.983 E.03405
G1 X140.514 Y57.609 E.13252
G1 X139.84 Y57.609 E.03405
G1 X139.84 Y54.983 E.13252
G1 X139.165 Y54.983 E.03405
G1 X139.165 Y57.609 E.13252
G1 X138.491 Y57.609 E.03405
G1 X138.491 Y54.983 E.13252
G1 X137.816 Y54.983 E.03405
G1 X137.816 Y57.609 E.13252
G1 X137.142 Y57.609 E.03405
G1 X137.142 Y54.983 E.13252
G1 X136.467 Y54.983 E.03405
G1 X136.467 Y57.609 E.13252
G1 X135.793 Y57.609 E.03405
G1 X135.793 Y54.71 E.14631
M204 S1000
;WIPE_START
G1 F8640
G1 X135.793 Y57.609 E-.66925
G1 X136.186 Y57.609 E-.09075
;WIPE_END
G1 E-.04 F2100
G1 Z.6 F720
G1 X161.868 Y60.132 F10800
G1 Z.2 F720
G1 E.8 F1500
M204 S800
;TYPE:Perimeter
;WIDTH:0.649999
G1 F1200
G1 X161.868 Y149.868 E4.52976
G1 X88.132 Y149.868 E3.7221
G1 X88.132 Y60.132 E4.52976
G1 X161.778 Y60.132 E3.71756
M204 S1000
M73 Q0 S142
G1 X162.475 Y59.525 F10800
M204 S800
;TYPE:External perimeter
G1 F1200
G1 X162.475 Y150.475 E4.59105
G1 X87.525 Y150.475 E3.78339
G1 X87.525 Y59.525 E4.59105
G1 X162.385 Y59.525 E3.77884
M204 S1000
G1 X162.338 Y60.109 F10800
;WIPE_START
G1 F8640
G1 X162.388 Y62.816 E-.76
;WIPE_END
G1 E-.04 F2100
G1 Z.6 F720
G1 X160.454 Y60.314 F10800
G1 Z.2 F720
G1 E.8 F1500
M204 S800
;TYPE:Solid infill
;WIDTH:0.652246
G1 F1200
G1 X161.413 Y61.273 E.0687
G1 X161.413 Y62.135 E.04366
G1 X159.865 Y60.587 E.11087
G1 X159.004 Y60.587 E.04366
G1 X161.413 Y62.996 E.17261
G1 X161.413 Y63.858 E.04366
G1 X158.142 Y60.587 E.23435
G1 X157.28 Y60.587 E.04366
G1 X161.413 Y64.72 E.2961
G1 X161.413 Y65.582 E.04366
M73 P0 R140
G1 X156.418 Y60.587 E.35784
G1 X155.557 Y60.587 E.04366
G1 X161.413 Y66.443 E.41959
G1 X161.413 Y67.305 E.04366
G1 X154.695 Y60.587 E.48133
G1 X153.833 Y60.587 E.04366
G1 X161.413 Y68.167 E.54307
G1 X161.413 Y69.028 E.04366
G1 X152.972 Y60.587 E.60482
G1 X152.11 Y60.587 E.04366
G1 X161.413 Y69.89 E.66656
G1 X161.413 Y70.752 E.04366
G1 X151.248 Y60.587 E.7283
G1 X150.386 Y60.587 E.04366
G1 X161.413 Y71.614 E.79005
G1 X161.413 Y72.475 E.04366
G1 X149.525 Y60.587 E.85179
G1 X148.663 Y60.587 E.04366
G1 X161.413 Y73.337 E.91354
G1 X161.413 Y74.199 E.04366
G1 X147.801 Y60.587 E.97528
G1 X146.94 Y60.587 E.04366
G1 X161.413 Y75.06 E1.03702
G1 X161.413 Y75.922 E.04366
G1 X146.078 Y60.587 E1.09877
G1 X145.216 Y60.587 E.04366
G1 X161.413 Y76.784 E1.16051
G1 X161.413 Y77.646 E.04366
M73 P1 R140
M73 Q1 S142
G1 X144.354 Y60.587 E1.22225
G1 X143.493 Y60.587 E.04366
G1 X161.413 Y78.507 E1.284
G1 X161.413 Y79.369 E.04366
G1 X142.631 Y60.587 E1.34574
G1 X141.769 Y60.587 E.04366
G1 X161.413 Y80.231 E1.40749
G1 X161.413 Y81.092 E.04366
G1 X140.908 Y60.587 E1.46923
G1 X140.046 Y60.587 E.04366
G1 X161.413 Y81.954 E1.53097
G1 X161.413 Y82.816 E.04366
G1 X139.184 Y60.587 E1.59272
G1 X138.322 Y60.587 E.04366
G1 X161.413 Y83.678 E1.65446
G1 X161.413 Y84.539 E.04366
G1 X137.461 Y60.587 E1.71621
G1 X136.599 Y60.587 E.04366
G1 X161.413 Y85.401 E1.77795
G1 X161.413 Y86.263 E.04366
G1 X135.737 Y60.587 E1.83969
G1 X134.876 Y60.587 E.04366
G1 X161.413 Y87.124 E1.90144
G1 X161.413 Y87.986 E.04366
G1 X134.014 Y60.587 E1.96318
G1 X133.152 Y60.587 E.04366
G1 X161.413 Y88.848 E2.02492
G1 X161.413 Y89.71 E.04366
G1 X132.29 Y60.587 E2.08667
G1 X131.429 Y60.587 E.04366
M73 Q1 S141
G1 X161.413 Y90.571 E2.14841
G1 X161.413 Y91.433 E.04366
G1 X130.567 Y60.587 E2.21016
G1 X129.705 Y60.587 E.04366
G1 X161.413 Y92.295 E2.2719
G1 X161.413 Y93.156 E.04366
G1 X128.844 Y60.587 E2.33364
G1 X127.982 Y60.587 E.04366
G1 X161.413 Y94.018 E2.39539
G1 X161.413 Y94.88 E.04366
G1 X127.12 Y60.587 E2.45713
G1 X126.258 Y60.587 E.04366
G1 X161.413 Y95.742 E2.51887
G1 X161.413 Y96.603 E.04366
G1 X125.397 Y60.587 E2.58062
G1 X124.535 Y60.587 E.04366
G1 X161.413 Y97.465 E2.64236
G1 X161.413 Y98.327 E.04366
G1 X123.673 Y60.587 E2.70411
G1 X122.812 Y60.587 E.04366
M73 P1 R139
G1 X161.413 Y99.188 E2.76585
G1 X161.413 Y100.05 E.04366
G1 X121.95 Y60.587 E2.82759
G1 X121.088 Y60.587 E.04366
G1 X161.413 Y100.912 E2.88934
G1 X161.413 Y101.774 E.04366
G1 X120.226 Y60.587 E2.95108
G1 X119.365 Y60.587 E.04366
G1 X161.413 Y102.635 E3.01283
G1 X161.413 Y103.497 E.04366
G1 X118.503 Y60.587 E3.07457
G1 X117.641 Y60.587 E.04366
G1 X161.413 Y104.359 E3.13631
G1 X161.413 Y105.221 E.04366
G1 X116.779 Y60.587 E3.19806
G1 X115.918 Y60.587 E.04366
G1 X161.413 Y106.082 E3.2598
G1 X161.413 Y106.944 E.04366
G1 X115.056 Y60.587 E3.32154
G1 X114.194 Y60.587 E.04366
G1 X161.413 Y107.806 E3.38329
G1 X161.413 Y108.667 E.04366
M73 Q1 S140
G1 X113.333 Y60.587 E3.44503
G1 X112.471 Y60.587 E.04366
M73 P2 R139
M73 Q2 S140
G1 X161.413 Y109.529 E3.50678
G1 X161.413 Y110.391 E.04366
G1 X111.609 Y60.587 E3.56852
G1 X110.747 Y60.587 E.04366
G1 X161.413 Y111.253 E3.63026
G1 X161.413 Y112.114 E.04366
G1 X109.886 Y60.587 E3.69201
G1 X109.024 Y60.587 E.04366
G1 X161.413 Y112.976 E3.75375
G1 X161.413 Y113.838 E.04366
G1 X108.162 Y60.587 E3.81549
G1 X107.301 Y60.587 E.04366
M73 P2 R138
G1 X161.413 Y114.699 E3.87724
G1 X161.413 Y115.561 E.04366
G1 X106.439 Y60.587 E3.93898
G1 X105.577 Y60.587 E.04366
G1 X161.413 Y116.423 E4.00073
G1 X161.413 Y117.285 E.04366
G1 X104.715 Y60.587 E4.06247
G1 X103.854 Y60.587 E.04366
G1 X161.413 Y118.146 E4.12421
G1 X161.413 Y119.008 E.04366
G1 X102.992 Y60.587 E4.18596
G1 X102.13 Y60.587 E.04366
G1 X161.413 Y119.87 E4.2477
G1 X161.413 Y120.731 E.04366
G1 X101.269 Y60.587 E4.30945
G1 X100.407 Y60.587 E.04366
G1 X161.413 Y121.593 E4.37119
G1 X161.413 Y122.455 E.04366
M73 Q2 S139
G1 X99.545 Y60.587 E4.43293
G1 X98.683 Y60.587 E.04366
G1 X161.413 Y123.317 E4.49468
G1 X161.413 Y124.178 E.04366
G1 X97.822 Y60.587 E4.55642
G1 X96.96 Y60.587 E.04366
G1 X161.413 Y125.04 E4.61816
G1 X161.413 Y125.902 E.04366
G1 X96.098 Y60.587 E4.67991
G1 X95.237 Y60.587 E.04366
M73 P2 R137
G1 X161.413 Y126.763 E4.74165
G1 X161.413 Y127.625 E.04366
M73 P3 R137
M73 Q3 S139
G1 X94.375 Y60.587 E4.8034
G1 X93.513 Y60.587 E.04366
G1 X161.413 Y128.487 E4.86514
G1 X161.413 Y129.349 E.04366
G1 X92.651 Y60.587 E4.92688
G1 X91.79 Y60.587 E.04366
G1 X161.413 Y130.21 E4.98863
G1 X161.413 Y131.072 E.04366
G1 X90.928 Y60.587 E5.05037
G1 X90.066 Y60.587 E.04366
G1 X161.413 Y131.934 E5.11211
G1 X161.413 Y132.795 E.04366
M73 Q3 S138
G1 X89.205 Y60.587 E5.17386
G1 X88.587 Y60.587 E.03127
G1 X88.587 Y60.832 E.01239
G1 X161.413 Y133.657 E5.21808
G1 X161.413 Y134.519 E.04366
G1 X88.587 Y61.694 E5.21808
G1 X88.587 Y62.555 E.04366
G1 X161.413 Y135.381 E5.21808
G1 X161.413 Y136.242 E.04366
G1 X88.587 Y63.417 E5.21808
G1 X88.587 Y64.279 E.04366
M73 P3 R136
G1 X161.413 Y137.104 E5.21808
G1 X161.413 Y137.966 E.04366
G1 X88.587 Y65.141 E5.21808
G1 X88.587 Y66.002 E.04366
G1 X161.413 Y138.827 E5.21808
G1 X161.413 Y139.689 E.04366
G1 X88.587 Y66.864 E5.21808
G1 X88.587 Y67.726 E.04366
G1 X161.413 Y140.551 E5.21808
G1 X161.413 Y141.413 E.04366
M73 P4 R136
G1 X88.587 Y68.587 E5.21808
G1 X88.587 Y69.449 E.04366
M73 Q4 S138
G1 X161.413 Y142.274 E5.21808
G1 X161.413 Y143.136 E.04366
M73 Q4 S137
G1 X88.587 Y70.311 E5.21808
G1 X88.587 Y71.173 E.04366
G1 X161.413 Y143.998 E5.21808
G1 X161.413 Y144.86 E.04366
G1 X88.587 Y72.034 E5.21808
G1 X88.587 Y72.896 E.04366
G1 X161.413 Y145.721 E5.21808
G1 X161.413 Y146.583 E.04366
G1 X88.587 Y73.758 E5.21808
G1 X88.587 Y74.619 E.04366
M73 P4 R135
G1 X161.413 Y147.445 E5.21808
G1 X161.413 Y148.306 E.04366
G1 X88.587 Y75.481 E5.21808
G1 X88.587 Y76.343 E.04366
G1 X161.413 Y149.168 E5.21808
G1 X161.413 Y149.413 E.01239
G1 X160.795 Y149.413 E.03127
G1 X88.587 Y77.205 E5.17386
G1 X88.587 Y78.066 E.04366
G1 X159.934 Y149.413 E5.11211
G1 X159.072 Y149.413 E.04366
G1 X88.587 Y78.928 E5.05037
G1 X88.587 Y79.79 E.04366
G1 X158.21 Y149.413 E4.98863
G1 X157.349 Y149.413 E.04366
M73 Q4 S136
G1 X88.587 Y80.651 E4.92688
G1 X88.587 Y81.513 E.04366
G1 X156.487 Y149.413 E4.86514
G1 X155.625 Y149.413 E.04366
G1 X88.587 Y82.375 E4.80339
G1 X88.587 Y83.237 E.04366
M73 P5 R135
G1 X154.763 Y149.413 E4.74165
G1 X153.902 Y149.413 E.04366
M73 Q5 S136
G1 X88.587 Y84.098 E4.67991
G1 X88.587 Y84.96 E.04366
M73 P5 R134
G1 X153.04 Y149.413 E4.61816
G1 X152.178 Y149.413 E.04366
G1 X88.587 Y85.822 E4.55642
G1 X88.587 Y86.683 E.04366
G1 X151.317 Y149.413 E4.49468
G1 X150.455 Y149.413 E.04366
G1 X88.587 Y87.545 E4.43293
G1 X88.587 Y88.407 E.04366
G1 X149.593 Y149.413 E4.37119
G1 X148.731 Y149.413 E.04366
G1 X88.587 Y89.269 E4.30944
G1 X88.587 Y90.13 E.04366
G1 X147.87 Y149.413 E4.2477
G1 X147.008 Y149.413 E.04366
G1 X88.587 Y90.992 E4.18596
G1 X88.587 Y91.854 E.04366
M73 Q5 S135
G1 X146.146 Y149.413 E4.12421
G1 X145.285 Y149.413 E.04366
G1 X88.587 Y92.715 E4.06247
G1 X88.587 Y93.577 E.04366
G1 X144.423 Y149.413 E4.00072
G1 X143.561 Y149.413 E.04366
G1 X88.587 Y94.439 E3.93898
G1 X88.587 Y95.301 E.04366
G1 X142.699 Y149.413 E3.87724
G1 X141.838 Y149.413 E.04366
G1 X88.587 Y96.162 E3.81549
G1 X88.587 Y97.024 E.04366
M73 P5 R133
G1 X140.976 Y149.413 E3.75375
G1 X140.114 Y149.413 E.04366
G1 X88.587 Y97.886 E3.69201
G1 X88.587 Y98.747 E.04366
G1 X139.253 Y149.413 E3.63026
G1 X138.391 Y149.413 E.04366
G1 X88.587 Y99.609 E3.56852
G1 X88.587 Y100.471 E.04366
M73 P6 R133
G1 X137.529 Y149.413 E3.50677
G1 X136.667 Y149.413 E.04366
G1 X88.587 Y101.333 E3.44503
G1 X88.587 Y102.194 E.04366
M73 Q6 S135
G1 X135.806 Y149.413 E3.38329
G1 X134.944 Y149.413 E.04366
G1 X88.587 Y103.056 E3.32154
G1 X88.587 Y103.918 E.04366
G1 X134.082 Y149.413 E3.2598
G1 X133.22 Y149.413 E.04366
G1 X88.587 Y104.78 E3.19806
G1 X88.587 Y105.641 E.04366
M73 Q6 S134
G1 X132.359 Y149.413 E3.13631
G1 X131.497 Y149.413 E.04366
G1 X88.587 Y106.503 E3.07457
G1 X88.587 Y107.365 E.04366
G1 X130.635 Y149.413 E3.01282
G1 X129.774 Y149.413 E.04366
G1 X88.587 Y108.226 E2.95108
G1 X88.587 Y109.088 E.04366
G1 X128.912 Y149.413 E2.88934
G1 X128.05 Y149.413 E.04366
G1 X88.587 Y109.95 E2.82759
G1 X88.587 Y110.812 E.04366
G1 X127.188 Y149.413 E2.76585
G1 X126.327 Y149.413 E.04366
G1 X88.587 Y111.673 E2.7041
G1 X88.587 Y112.535 E.04366
M73 P6 R132
G1 X125.465 Y149.413 E2.64236
G1 X124.603 Y149.413 E.04366
G1 X88.587 Y113.397 E2.58062
G1 X88.587 Y114.258 E.04366
G1 X123.742 Y149.413 E2.51887
G1 X122.88 Y149.413 E.04366
G1 X88.587 Y115.12 E2.45713
G1 X88.587 Y115.982 E.04366
G1 X122.018 Y149.413 E2.39539
G1 X121.156 Y149.413 E.04366
G1 X88.587 Y116.844 E2.33364
G1 X88.587 Y117.705 E.04366
G1 X120.295 Y149.413 E2.2719
G1 X119.433 Y149.413 E.04366
G1 X88.587 Y118.567 E2.21015
G1 X88.587 Y119.429 E.04366
G1 X118.571 Y149.413 E2.14841
G1 X117.71 Y149.413 E.04366
G1 X88.587 Y120.29 E2.08667
G1 X88.587 Y121.152 E.04366
G1 X116.848 Y149.413 E2.02492
G1 X115.986 Y149.413 E.04366
G1 X88.587 Y122.014 E1.96318
G1 X88.587 Y122.876 E.04366
G1 X115.124 Y149.413 E1.90144
G1 X114.263 Y149.413 E.04366
G1 X88.587 Y123.737 E1.83969
G1 X88.587 Y124.599 E.04366
G1 X113.401 Y149.413 E1.77795
G1 X112.539 Y149.413 E.04366
G1 X88.587 Y125.461 E1.7162
