; generated by PrusaSlicer 2.5.0+win64 on 2022-10-19 at 08:13:11 UTC


;
;
; 

; external perimeters extrusion width = 0.45mm
; perimeters extrusion width = 0.45mm
; infill extrusion width = 0.45mm
; solid infill extrusion width = 0.45mm
; top infill extrusion width = 0.40mm
; support material extrusion width = 0.35mm
; first layer extrusion width = 0.42mm

M73 P0 R196
M73 Q0 S197
M201 X1000 Y1000 Z200 E5000 ; sets maximum accelerations, mm/sec^2
M203 X200 Y200 Z12 E120 ; sets maximum feedrates, mm / sec
M204 P1250 R1250 T1250 ; sets acceleration (P, T) and retract acceleration (R), mm/sec^2
M205 X8.00 Y8.00 Z0.40 E4.50 ; sets the jerk limits, mm/sec
M205 S0 T0 ; sets the minimum extruding and travel feed rate, mm/sec
M107
;TYPE:Custom
M862.3 P "MK3S" ; printer model check
M862.1 P0.4 ; nozzle diameter check
M115 U3.11.0 ; tell printer latest fw version
G90 ; use absolute coordinates
M83 ; extruder relative mode
M104 S215 ; set extruder temp
M140 S60 ; set bed temp
M190 S60 ; wait for bed temp
M109 S215 ; wait for extruder temp
G28 W ; home all without mesh bed level
G80 ; mesh bed leveling

G1 Z0.2 F720
G1 Y-3 F1000 ; go outside print area
G92 E0
G1 X60 E9 F1000 ; intro line
G1 X100 E12.5 F1000 ; intro line

G92 E0
M221 S95

; Don't change E values below. Excessive value can damage the printer.
M907 E430 ; set extruder motor current
G21 ; set units to millimeters
G90 ; use absolute coordinates
M83 ; use relative distances for extrusion
M900 K0.05 ; Filament gcode LA 1.5
M900 K30 ; Filament gcode LA 1.0
M107
;LAYER_CHANGE
;Z:0.2
;HEIGHT:0.2
;BEFORE_LAYER_CHANGE
G92 E0.0
;0.2


G1 E-.8 F2100
M73 P0 R195
G1 Z.4 F720
;AFTER_LAYER_CHANGE
;0.2
G1 X85.015 Y57.693 F10800
G1 Z.2 F720
G1 E.8 F2100
M204 S800
;TYPE:Skirt/Brim
;WIDTH:0.42
G1 F1200
G1 X86.566 Y56.663 E.05838
G1 X103.6 Y53.538 E.54301
G1 X153.321 Y53.538 E1.55898
G1 X154.043 Y53.65 E.02291
G1 X163.722 Y56.735 E.31851
G1 X164.848 Y57.505 E.04278
G1 X165.377 Y59 E.04971
G1 X165.377 Y151 E2.8846
G1 X164.985 Y152.307 E.04278
G1 X163.94 Y153.183 E.04278
G1 X163 Y153.377 E.03008
G1 X87 Y153.377 E2.38293
G1 X85.693 Y152.985 E.04278
G1 X84.817 Y151.94 E.04278
G1 X84.623 Y151 E.03008
G1 X84.623 Y59 E2.8846
G1 X84.997 Y57.75 E.0409
M204 S1000
; printing object BoitierVF id:0 copy 0
;WIPE_START
G1 F8640
G1 X86.566 Y56.663 E-.44068
G1 X87.926 Y56.413 E-.31932
;WIPE_END
G1 E-.04 F2100
G1 Z.6 F720
G1 X123.329 Y58.52 F10800
G1 Z.2 F720
G1 E.8 F2100
M204 S800
;TYPE:Support material
G1 F1200
G1 X103.6 Y58.52 E.6186
G1 X103.6 Y55.915 E.08168
G1 X123.329 Y55.915 E.6186
G1 X123.329 Y58.463 E.07991
M204 S1000
G1 X122.905 Y58.35 F10800
M204 S800
G1 F1200
G1 X122.905 Y56.254 E.06572
G1 X122.486 Y56.254 E.01314
G1 X122.486 Y58.181 E.0604
G1 X122.067 Y58.181 E.01314
G1 X122.067 Y56.254 E.0604
G1 X121.648 Y56.254 E.01314
G1 X121.648 Y58.181 E.0604
G1 X121.229 Y58.181 E.01314
G1 X121.229 Y56.254 E.0604
G1 X120.81 Y56.254 E.01314
G1 X120.81 Y58.181 E.0604
G1 X120.391 Y58.181 E.01314
G1 X120.391 Y56.254 E.0604
G1 X119.972 Y56.254 E.01314
G1 X119.972 Y58.181 E.0604
G1 X119.553 Y58.181 E.01314
G1 X119.553 Y56.254 E.0604
G1 X119.134 Y56.254 E.01314
G1 X119.134 Y58.181 E.0604
G1 X118.715 Y58.181 E.01314
G1 X118.715 Y56.254 E.0604
G1 X118.296 Y56.254 E.01314
G1 X118.296 Y58.181 E.0604
G1 X117.877 Y58.181 E.01314
G1 X117.877 Y56.254 E.0604
G1 X117.458 Y56.254 E.01314
G1 X117.458 Y58.181 E.0604
G1 X117.039 Y58.181 E.01314
G1 X117.039 Y56.254 E.0604
G1 X116.62 Y56.254 E.01314
G1 X116.62 Y58.181 E.0604
G1 X116.201 Y58.181 E.01314
G1 X116.201 Y56.254 E.0604
G1 X115.783 Y56.254 E.01314
G1 X115.783 Y58.181 E.0604
G1 X115.364 Y58.181 E.01314
G1 X115.364 Y56.254 E.0604
G1 X114.945 Y56.254 E.01314
G1 X114.945 Y58.181 E.0604
G1 X114.526 Y58.181 E.01314
G1 X114.526 Y56.254 E.0604
G1 X114.107 Y56.254 E.01314
G1 X114.107 Y58.181 E.0604
G1 X113.688 Y58.181 E.01314
G1 X113.688 Y56.254 E.0604
G1 X113.269 Y56.254 E.01314
G1 X113.269 Y58.181 E.0604
G1 X112.85 Y58.181 E.01314
G1 X112.85 Y56.254 E.0604
G1 X112.431 Y56.254 E.01314
G1 X112.431 Y58.181 E.0604
G1 X112.012 Y58.181 E.01314
G1 X112.012 Y56.254 E.0604
G1 X111.593 Y56.254 E.01314
G1 X111.593 Y58.181 E.0604
G1 X111.174 Y58.181 E.01314
G1 X111.174 Y56.254 E.0604
G1 X110.755 Y56.254 E.01314
G1 X110.755 Y58.181 E.0604
G1 X110.336 Y58.181 E.01314
G1 X110.336 Y56.254 E.0604
G1 X109.917 Y56.254 E.01314
G1 X109.917 Y58.181 E.0604
G1 X109.498 Y58.181 E.01314
G1 X109.498 Y56.254 E.0604
G1 X109.079 Y56.254 E.01314
G1 X109.079 Y58.181 E.0604
G1 X108.66 Y58.181 E.01314
G1 X108.66 Y56.254 E.0604
G1 X108.241 Y56.254 E.01314
G1 X108.241 Y58.181 E.0604
G1 X107.822 Y58.181 E.01314
G1 X107.822 Y56.254 E.0604
G1 X107.403 Y56.254 E.01314
G1 X107.403 Y58.181 E.0604
G1 X106.984 Y58.181 E.01314
G1 X106.984 Y56.254 E.0604
G1 X106.565 Y56.254 E.01314
G1 X106.565 Y58.181 E.0604
G1 X106.146 Y58.181 E.01314
G1 X106.146 Y56.254 E.0604
G1 X105.727 Y56.254 E.01314
G1 X105.727 Y58.181 E.0604
G1 X105.308 Y58.181 E.01314
G1 X105.308 Y56.254 E.0604
G1 X104.889 Y56.254 E.01314
G1 X104.889 Y58.181 E.0604
G1 X104.47 Y58.181 E.01314
G1 X104.47 Y56.254 E.0604
G1 X104.051 Y56.254 E.01314
G1 X104.051 Y58.35 E.06572
M204 S1000
;WIPE_START
G1 F8640
G1 X104.051 Y56.254 E-.48397
G1 X104.47 Y56.254 E-.09674
G1 X104.47 Y57.031 E-.17929
;WIPE_END
G1 E-.04 F2100
G1 Z.6 F720
G1 X153.321 Y58.52 F10800
G1 Z.2 F720
G1 E.8 F2100
M204 S800
G1 F1200
G1 X135.899 Y58.52 E.54626
G1 X135.899 Y55.915 E.08168
G1 X153.321 Y55.915 E.54626
G1 X153.321 Y58.463 E.07991
M204 S1000
G1 X152.652 Y58.35 F10800
M204 S800
G1 F1200
G1 X152.652 Y56.254 E.06572
G1 X152.234 Y56.254 E.01314
G1 X152.234 Y58.181 E.0604
G1 X151.815 Y58.181 E.01314
G1 X151.815 Y56.254 E.0604
G1 X151.396 Y56.254 E.01314
M73 Q0 S196
G1 X151.396 Y58.181 E.0604
G1 X150.977 Y58.181 E.01314
G1 X150.977 Y56.254 E.0604
G1 X150.558 Y56.254 E.01314
G1 X150.558 Y58.181 E.0604
G1 X150.139 Y58.181 E.01314
G1 X150.139 Y56.254 E.0604
G1 X149.72 Y56.254 E.01314
G1 X149.72 Y58.181 E.0604
G1 X149.301 Y58.181 E.01314
G1 X149.301 Y56.254 E.0604
G1 X148.882 Y56.254 E.01314
G1 X148.882 Y58.181 E.0604
G1 X148.463 Y58.181 E.01314
G1 X148.463 Y56.254 E.0604
G1 X148.044 Y56.254 E.01314
G1 X148.044 Y58.181 E.0604
G1 X147.625 Y58.181 E.01314
G1 X147.625 Y56.254 E.0604
G1 X147.206 Y56.254 E.01314
G1 X147.206 Y58.181 E.0604
G1 X146.787 Y58.181 E.01314
G1 X146.787 Y56.254 E.0604
G1 X146.368 Y56.254 E.01314
G1 X146.368 Y58.181 E.0604
G1 X145.949 Y58.181 E.01314
G1 X145.949 Y56.254 E.0604
G1 X145.53 Y56.254 E.01314
G1 X145.53 Y58.181 E.0604
G1 X145.111 Y58.181 E.01314
G1 X145.111 Y56.254 E.0604
G1 X144.692 Y56.254 E.01314
G1 X144.692 Y58.181 E.0604
G1 X144.273 Y58.181 E.01314
G1 X144.273 Y56.254 E.0604
G1 X143.854 Y56.254 E.01314
G1 X143.854 Y58.181 E.0604
G1 X143.435 Y58.181 E.01314
G1 X143.435 Y56.254 E.0604
G1 X143.016 Y56.254 E.01314
G1 X143.016 Y58.181 E.0604
G1 X142.597 Y58.181 E.01314
G1 X142.597 Y56.254 E.0604
G1 X142.178 Y56.254 E.01314
G1 X142.178 Y58.181 E.0604
G1 X141.759 Y58.181 E.01314
G1 X141.759 Y56.254 E.0604
G1 X141.34 Y56.254 E.01314
G1 X141.34 Y58.181 E.0604
G1 X140.921 Y58.181 E.01314
G1 X140.921 Y56.254 E.0604
G1 X140.502 Y56.254 E.01314
G1 X140.502 Y58.181 E.0604
G1 X140.083 Y58.181 E.01314
G1 X140.083 Y56.254 E.0604
G1 X139.664 Y56.254 E.01314
G1 X139.664 Y58.181 E.0604
G1 X139.245 Y58.181 E.01314
G1 X139.245 Y56.254 E.0604
G1 X138.826 Y56.254 E.01314
G1 X138.826 Y58.181 E.0604
G1 X138.407 Y58.181 E.01314
G1 X138.407 Y56.254 E.0604
G1 X137.988 Y56.254 E.01314
G1 X137.988 Y58.181 E.0604
G1 X137.569 Y58.181 E.01314
G1 X137.569 Y56.254 E.0604
G1 X137.15 Y56.254 E.01314
G1 X137.15 Y58.181 E.0604
G1 X136.731 Y58.181 E.01314
G1 X136.731 Y56.254 E.0604
G1 X136.312 Y56.254 E.01314
G1 X136.312 Y58.35 E.06572
M204 S1000
;WIPE_START
G1 F8640
G1 X136.312 Y56.254 E-.48397
G1 X136.731 Y56.254 E-.09674
G1 X136.731 Y57.031 E-.17929
;WIPE_END
G1 E-.04 F2100
G1 Z.6 F720
G1 X162.213 Y150.213 F10800
G1 Z.2 F720
G1 E.8 F2100
M204 S800
;TYPE:Perimeter
;WIDTH:0.419999
G1 F1200
G1 X87.787 Y150.213 E2.33357
G1 X87.787 Y59.787 E2.83523
G1 X162.213 Y59.787 E2.33357
G1 X162.213 Y150.153 E2.83335
M204 S1000
G1 X162.59 Y150.59 F10800
M204 S800
;TYPE:External perimeter
G1 F1200
G1 X87.41 Y150.59 E2.35721
G1 X87.41 Y59.41 E2.85888
G1 X162.59 Y59.41 E2.35721
M73 P0 R194
G1 X162.59 Y150.53 E2.857
M204 S1000
G1 X162.207 Y150.474 F10800
;WIPE_START
G1 F8640
G1 X159.299 Y150.533 E-.76
;WIPE_END
G1 E-.04 F2100
G1 Z.6 F720
G1 X161.336 Y59.9 F10800
G1 Z.2 F720
G1 E.8 F2100
M204 S800
;TYPE:Solid infill
;WIDTH:0.420521
G1 F1200
G1 X161.93 Y60.494 E.02636
G1 X161.93 Y61.028 E.01677
G1 X160.972 Y60.07 E.04254
G1 X160.438 Y60.07 E.01677
G1 X161.93 Y61.562 E.06625
G1 X161.93 Y62.096 E.01677
G1 X159.904 Y60.07 E.08996
G1 X159.37 Y60.07 E.01677
G1 X161.93 Y62.63 E.11367
G1 X161.93 Y63.164 E.01677
G1 X158.836 Y60.07 E.13738
G1 X158.302 Y60.07 E.01677
G1 X161.93 Y63.698 E.1611
G1 X161.93 Y64.232 E.01677
G1 X157.768 Y60.07 E.18481
G1 X157.234 Y60.07 E.01677
G1 X161.93 Y64.766 E.20852
G1 X161.93 Y65.3 E.01677
G1 X156.7 Y60.07 E.23223
G1 X156.166 Y60.07 E.01677
G1 X161.93 Y65.834 E.25594
G1 X161.93 Y66.368 E.01677
G1 X155.632 Y60.07 E.27965
G1 X155.098 Y60.07 E.01677
G1 X161.93 Y66.902 E.30337
G1 X161.93 Y67.436 E.01677
G1 X154.564 Y60.07 E.32708
G1 X154.03 Y60.07 E.01677
G1 X161.93 Y67.97 E.35079
G1 X161.93 Y68.504 E.01677
G1 X153.496 Y60.07 E.3745
G1 X152.962 Y60.07 E.01677
G1 X161.93 Y69.038 E.39821
G1 X161.93 Y69.572 E.01677
G1 X152.428 Y60.07 E.42192
G1 X151.894 Y60.07 E.01677
G1 X161.93 Y70.106 E.44564
G1 X161.93 Y70.64 E.01677
G1 X151.36 Y60.07 E.46935
G1 X150.826 Y60.07 E.01677
G1 X161.93 Y71.174 E.49306
G1 X161.93 Y71.708 E.01677
G1 X150.292 Y60.07 E.51677
G1 X149.758 Y60.07 E.01677
G1 X161.93 Y72.242 E.54048
G1 X161.93 Y72.776 E.01677
G1 X149.224 Y60.07 E.56419
G1 X148.69 Y60.07 E.01677
G1 X161.93 Y73.31 E.5879
G1 X161.93 Y73.844 E.01677
G1 X148.156 Y60.07 E.61162
G1 X147.622 Y60.07 E.01677
G1 X161.93 Y74.378 E.63533
G1 X161.93 Y74.912 E.01677
G1 X147.088 Y60.07 E.65904
G1 X146.554 Y60.07 E.01677
G1 X161.93 Y75.446 E.68275
G1 X161.93 Y75.98 E.01677
G1 X146.02 Y60.07 E.70646
G1 X145.486 Y60.07 E.01677
G1 X161.93 Y76.514 E.73017
G1 X161.93 Y77.048 E.01677
M73 Q0 S195
G1 X144.952 Y60.07 E.75389
G1 X144.418 Y60.07 E.01677
G1 X161.93 Y77.582 E.7776
G1 X161.93 Y78.116 E.01677
G1 X143.884 Y60.07 E.80131
G1 X143.35 Y60.07 E.01677
G1 X161.93 Y78.65 E.82502
G1 X161.93 Y79.184 E.01677
G1 X142.816 Y60.07 E.84873
G1 X142.282 Y60.07 E.01677
G1 X161.93 Y79.718 E.87244
G1 X161.93 Y80.252 E.01677
G1 X141.748 Y60.07 E.89616
G1 X141.214 Y60.07 E.01677
G1 X161.93 Y80.786 E.91987
G1 X161.93 Y81.32 E.01677
G1 X140.68 Y60.07 E.94358
G1 X140.146 Y60.07 E.01677
G1 X161.93 Y81.854 E.96729
G1 X161.93 Y82.388 E.01677
G1 X139.612 Y60.07 E.991
G1 X139.078 Y60.07 E.01677
G1 X161.93 Y82.922 E1.01471
G1 X161.93 Y83.456 E.01677
G1 X138.544 Y60.07 E1.03842
G1 X138.01 Y60.07 E.01677
G1 X161.93 Y83.99 E1.06214
G1 X161.93 Y84.524 E.01677
M73 P1 R194
M73 Q1 S195
G1 X137.476 Y60.07 E1.08585
G1 X136.942 Y60.07 E.01677
G1 X161.93 Y85.058 E1.10956
G1 X161.93 Y85.592 E.01677
G1 X136.408 Y60.07 E1.13327
G1 X135.874 Y60.07 E.01677
G1 X161.93 Y86.126 E1.15698
G1 X161.93 Y86.66 E.01677
G1 X135.34 Y60.07 E1.18069
G1 X134.806 Y60.07 E.01677
M73 P1 R193
G1 X161.93 Y87.194 E1.20441
G1 X161.93 Y87.728 E.01677
G1 X134.272 Y60.07 E1.22812
G1 X133.738 Y60.07 E.01677
G1 X161.93 Y88.262 E1.25183
G1 X161.93 Y88.796 E.01677
G1 X133.204 Y60.07 E1.27554
G1 X132.67 Y60.07 E.01677
G1 X161.93 Y89.33 E1.29925
G1 X161.93 Y89.864 E.01677
G1 X132.136 Y60.07 E1.32296
G1 X131.602 Y60.07 E.01677
G1 X161.93 Y90.398 E1.34667
G1 X161.93 Y90.932 E.01677
G1 X131.068 Y60.07 E1.37039
G1 X130.534 Y60.07 E.01677
G1 X161.93 Y91.466 E1.3941
G1 X161.93 Y92 E.01677
G1 X130 Y60.07 E1.41781
G1 X129.466 Y60.07 E.01677
G1 X161.93 Y92.534 E1.44152
G1 X161.93 Y93.068 E.01677
G1 X128.932 Y60.07 E1.46523
G1 X128.398 Y60.07 E.01677
G1 X161.93 Y93.602 E1.48894
G1 X161.93 Y94.136 E.01677
G1 X127.864 Y60.07 E1.51266
G1 X127.33 Y60.07 E.01677
M73 Q1 S194
G1 X161.93 Y94.67 E1.53637
G1 X161.93 Y95.204 E.01677
G1 X126.796 Y60.07 E1.56008
G1 X126.262 Y60.07 E.01677
G1 X161.93 Y95.738 E1.58379
G1 X161.93 Y96.272 E.01677
G1 X125.728 Y60.07 E1.6075
G1 X125.194 Y60.07 E.01677
G1 X161.93 Y96.806 E1.63121
G1 X161.93 Y97.34 E.01677
G1 X124.66 Y60.07 E1.65493
G1 X124.126 Y60.07 E.01677
G1 X161.93 Y97.874 E1.67864
G1 X161.93 Y98.408 E.01677
G1 X123.592 Y60.07 E1.70235
G1 X123.058 Y60.07 E.01677
G1 X161.93 Y98.942 E1.72606
G1 X161.93 Y99.476 E.01677
G1 X122.524 Y60.07 E1.74977
G1 X121.989 Y60.07 E.01677
G1 X161.93 Y100.011 E1.77348
G1 X161.93 Y100.545 E.01677
M73 P1 R192
G1 X121.455 Y60.07 E1.79719
G1 X120.921 Y60.07 E.01677
G1 X161.93 Y101.079 E1.82091
G1 X161.93 Y101.613 E.01677
G1 X120.387 Y60.07 E1.84462
G1 X119.853 Y60.07 E.01677
G1 X161.93 Y102.147 E1.86833
G1 X161.93 Y102.681 E.01677
G1 X119.319 Y60.07 E1.89204
G1 X118.785 Y60.07 E.01677
G1 X161.93 Y103.215 E1.91575
G1 X161.93 Y103.749 E.01677
G1 X118.251 Y60.07 E1.93946
G1 X117.717 Y60.07 E.01677
G1 X161.93 Y104.283 E1.96318
G1 X161.93 Y104.817 E.01677
G1 X117.183 Y60.07 E1.98689
G1 X116.649 Y60.07 E.01677
G1 X161.93 Y105.351 E2.0106
G1 X161.93 Y105.885 E.01677
M73 Q1 S193
G1 X116.115 Y60.07 E2.03431
G1 X115.581 Y60.07 E.01677
G1 X161.93 Y106.419 E2.05802
G1 X161.93 Y106.953 E.01677
G1 X115.047 Y60.07 E2.08173
G1 X114.513 Y60.07 E.01677
G1 X161.93 Y107.487 E2.10545
G1 X161.93 Y108.021 E.01677
G1 X113.979 Y60.07 E2.12916
G1 X113.445 Y60.07 E.01677
G1 X161.93 Y108.555 E2.15287
G1 X161.93 Y109.089 E.01677
M73 P2 R192
M73 Q2 S193
G1 X112.911 Y60.07 E2.17658
G1 X112.377 Y60.07 E.01677
G1 X161.93 Y109.623 E2.20029
G1 X161.93 Y110.157 E.01677
G1 X111.843 Y60.07 E2.224
G1 X111.309 Y60.07 E.01677
M73 P2 R191
G1 X161.93 Y110.691 E2.24771
G1 X161.93 Y111.225 E.01677
G1 X110.775 Y60.07 E2.27143
G1 X110.241 Y60.07 E.01677
G1 X161.93 Y111.759 E2.29514
G1 X161.93 Y112.293 E.01677
G1 X109.707 Y60.07 E2.31885
G1 X109.173 Y60.07 E.01677
G1 X161.93 Y112.827 E2.34256
G1 X161.93 Y113.361 E.01677
G1 X108.639 Y60.07 E2.36627
G1 X108.105 Y60.07 E.01677
G1 X161.93 Y113.895 E2.38998
G1 X161.93 Y114.429 E.01677
G1 X107.571 Y60.07 E2.4137
G1 X107.037 Y60.07 E.01677
M73 Q2 S192
G1 X161.93 Y114.963 E2.43741
G1 X161.93 Y115.497 E.01677
G1 X106.503 Y60.07 E2.46112
G1 X105.969 Y60.07 E.01677
G1 X161.93 Y116.031 E2.48483
G1 X161.93 Y116.565 E.01677
G1 X105.435 Y60.07 E2.50854
G1 X104.901 Y60.07 E.01677
G1 X161.93 Y117.099 E2.53225
G1 X161.93 Y117.633 E.01677
G1 X104.367 Y60.07 E2.55596
G1 X103.833 Y60.07 E.01677
G1 X161.93 Y118.167 E2.57968
G1 X161.93 Y118.701 E.01677
M73 P2 R190
G1 X103.299 Y60.07 E2.60339
G1 X102.765 Y60.07 E.01677
G1 X161.93 Y119.235 E2.6271
G1 X161.93 Y119.769 E.01677
G1 X102.231 Y60.07 E2.65081
G1 X101.697 Y60.07 E.01677
G1 X161.93 Y120.303 E2.67452
G1 X161.93 Y120.837 E.01677
G1 X101.163 Y60.07 E2.69823
G1 X100.629 Y60.07 E.01677
G1 X161.93 Y121.371 E2.72195
G1 X161.93 Y121.905 E.01677
G1 X100.095 Y60.07 E2.74566
G1 X99.561 Y60.07 E.01677
M73 Q2 S191
G1 X161.93 Y122.439 E2.76937
G1 X161.93 Y122.973 E.01677
G1 X99.027 Y60.07 E2.79308
G1 X98.493 Y60.07 E.01677
G1 X161.93 Y123.507 E2.81679
G1 X161.93 Y124.041 E.01677
G1 X97.959 Y60.07 E2.8405
G1 X97.425 Y60.07 E.01677
M73 P3 R190
M73 Q3 S191
G1 X161.93 Y124.575 E2.86422
G1 X161.93 Y125.109 E.01677
G1 X96.891 Y60.07 E2.88793
G1 X96.357 Y60.07 E.01677
G1 X161.93 Y125.643 E2.91164
G1 X161.93 Y126.177 E.01677
M73 P3 R189
G1 X95.823 Y60.07 E2.93535
G1 X95.289 Y60.07 E.01677
G1 X161.93 Y126.711 E2.95906
G1 X161.93 Y127.245 E.01677
G1 X94.755 Y60.07 E2.98277
G1 X94.221 Y60.07 E.01677
G1 X161.93 Y127.779 E3.00648
G1 X161.93 Y128.313 E.01677
G1 X93.687 Y60.07 E3.0302
G1 X93.153 Y60.07 E.01677
G1 X161.93 Y128.847 E3.05391
G1 X161.93 Y129.381 E.01677
M73 Q3 S190
G1 X92.619 Y60.07 E3.07762
G1 X92.085 Y60.07 E.01677
G1 X161.93 Y129.915 E3.10133
G1 X161.93 Y130.449 E.01677
G1 X91.551 Y60.07 E3.12504
G1 X91.017 Y60.07 E.01677
G1 X161.93 Y130.983 E3.14875
G1 X161.93 Y131.517 E.01677
G1 X90.483 Y60.07 E3.17247
