; generated by PrusaSlicer 2.5.0+win64 on 2022-11-10 at 11:34:35 UTC


;
;
; 

; external perimeters extrusion width = 0.45mm
; perimeters extrusion width = 0.45mm
; infill extrusion width = 0.45mm
; solid infill extrusion width = 0.45mm
; top infill extrusion width = 0.40mm
; support material extrusion width = 0.35mm
; first layer extrusion width = 0.42mm

M73 P0 R111
M73 Q0 S112
M201 X1000 Y1000 Z200 E5000 ; sets maximum accelerations, mm/sec^2
M203 X200 Y200 Z12 E120 ; sets maximum feedrates, mm / sec
M204 P1250 R1250 T1250 ; sets acceleration (P, T) and retract acceleration (R), mm/sec^2
M205 X8.00 Y8.00 Z0.40 E4.50 ; sets the jerk limits, mm/sec
M205 S0 T0 ; sets the minimum extruding and travel feed rate, mm/sec
M107
;TYPE:Custom
M862.3 P "MK3S" ; printer model check
M862.1 P0.4 ; nozzle diameter check
M115 U3.11.0 ; tell printer latest fw version
G90 ; use absolute coordinates
M83 ; extruder relative mode
M104 S240 ; set extruder temp
M140 S85 ; set bed temp
M190 S85 ; wait for bed temp
M109 S240 ; wait for extruder temp
G28 W ; home all without mesh bed level
G80 ; mesh bed leveling

G1 Z0.2 F720
G1 Y-3 F1000 ; go outside print area
G92 E0
G1 X60 E9 F1000 ; intro line
G1 X100 E12.5 F1000 ; intro line

G92 E0
M221 S95

; Don't change E values below. Excessive value can damage the printer.
M907 E430 ; set extruder motor current
G21 ; set units to millimeters
G90 ; use absolute coordinates
M83 ; use relative distances for extrusion
M900 K0.08 ; Filament gcode LA 1.5
M900 K45 ; Filament gcode LA 1.0
M107
;LAYER_CHANGE
;Z:0.2
;HEIGHT:0.2
;BEFORE_LAYER_CHANGE
G92 E0.0
;0.2


G1 E-1 F2100
G1 Z.2 F720
;AFTER_LAYER_CHANGE
;0.2
G1 Z.4
G1 X90.465 Y63.693 F10800
G1 Z.2 F720
G1 E1 F2100
M204 S800
;TYPE:Skirt/Brim
;WIDTH:0.42
G1 F1200
G1 X91.565 Y62.794 E.04457
G1 X102.715 Y58.323 E.37666
G1 X103.6 Y58.152 E.02825
G1 X153.321 Y58.152 E1.55898
G1 X155.048 Y58.896 E.05896
G1 X159.277 Y63.367 E.19295
G1 X159.927 Y65 E.05512
G1 X159.927 Y145 E2.50834
G1 X159.535 Y146.307 E.04278
G1 X158.49 Y147.183 E.04278
G1 X157.55 Y147.377 E.03008
G1 X92.45 Y147.377 E2.04116
G1 X91.143 Y146.985 E.04278
G1 X90.267 Y145.94 E.04278
G1 X90.073 Y145 E.03008
G1 X90.073 Y65 E2.50834
G1 X90.447 Y63.75 E.0409
M204 S1000
; printing object BoitierVF2 id:0 copy 0
;WIPE_START
G1 F8640
G1 X91.565 Y62.794 E-.33978
G1 X94.018 Y61.81 E-.61022
;WIPE_END
G1 E-.05 F2100
G1 Z.4 F720
G1 X123.329 Y64.52 F10800
G1 Z.2 F720
G1 E1 F2100
M204 S800
;TYPE:Support material
G1 F1200
G1 X103.6 Y64.52 E.6186
G1 X103.6 Y60.529 E.12513
G1 X123.329 Y60.529 E.6186
G1 X123.329 Y64.463 E.12336
M204 S1000
G1 X122.905 Y64.35 F10800
M204 S800
G1 F1200
G1 X122.905 Y60.869 E.10917
G1 X122.486 Y60.869 E.01314
G1 X122.486 Y64.181 E.10385
G1 X122.067 Y64.181 E.01314
G1 X122.067 Y60.869 E.10385
G1 X121.648 Y60.869 E.01314
G1 X121.648 Y64.181 E.10385
G1 X121.229 Y64.181 E.01314
G1 X121.229 Y60.869 E.10385
G1 X120.81 Y60.869 E.01314
G1 X120.81 Y64.181 E.10385
G1 X120.391 Y64.181 E.01314
G1 X120.391 Y60.869 E.10385
G1 X119.972 Y60.869 E.01314
G1 X119.972 Y64.181 E.10385
G1 X119.553 Y64.181 E.01314
G1 X119.553 Y60.869 E.10385
G1 X119.134 Y60.868 E.01314
G1 X119.134 Y64.181 E.10385
G1 X118.715 Y64.181 E.01314
G1 X118.715 Y60.868 E.10385
G1 X118.296 Y60.868 E.01314
G1 X118.296 Y64.181 E.10385
G1 X117.877 Y64.181 E.01314
G1 X117.877 Y60.869 E.10385
G1 X117.458 Y60.869 E.01314
G1 X117.458 Y64.181 E.10385
G1 X117.039 Y64.181 E.01314
G1 X117.039 Y60.869 E.10385
G1 X116.62 Y60.869 E.01314
G1 X116.62 Y64.181 E.10385
G1 X116.201 Y64.181 E.01314
G1 X116.201 Y60.869 E.10385
G1 X115.783 Y60.869 E.01314
G1 X115.783 Y64.181 E.10385
G1 X115.364 Y64.181 E.01314
G1 X115.364 Y60.869 E.10385
G1 X114.945 Y60.869 E.01314
G1 X114.945 Y64.181 E.10385
G1 X114.526 Y64.181 E.01314
G1 X114.526 Y60.869 E.10385
G1 X114.107 Y60.869 E.01314
G1 X114.107 Y64.181 E.10385
G1 X113.688 Y64.181 E.01314
G1 X113.688 Y60.869 E.10385
G1 X113.269 Y60.869 E.01314
G1 X113.269 Y64.181 E.10385
G1 X112.85 Y64.181 E.01314
G1 X112.85 Y60.869 E.10385
G1 X112.431 Y60.869 E.01314
G1 X112.431 Y64.181 E.10385
G1 X112.012 Y64.181 E.01314
G1 X112.012 Y60.869 E.10385
G1 X111.593 Y60.869 E.01314
G1 X111.593 Y64.181 E.10385
G1 X111.174 Y64.181 E.01314
G1 X111.174 Y60.869 E.10385
G1 X110.755 Y60.869 E.01314
G1 X110.755 Y64.181 E.10385
G1 X110.336 Y64.181 E.01314
G1 X110.336 Y60.869 E.10385
G1 X109.917 Y60.869 E.01314
G1 X109.917 Y64.181 E.10385
G1 X109.498 Y64.181 E.01314
G1 X109.498 Y60.869 E.10385
G1 X109.079 Y60.869 E.01314
G1 X109.079 Y64.181 E.10385
G1 X108.66 Y64.181 E.01314
G1 X108.66 Y60.869 E.10385
G1 X108.241 Y60.869 E.01314
G1 X108.241 Y64.181 E.10385
G1 X107.822 Y64.181 E.01314
G1 X107.822 Y60.869 E.10385
G1 X107.403 Y60.869 E.01314
G1 X107.403 Y64.181 E.10385
G1 X106.984 Y64.181 E.01314
G1 X106.984 Y60.869 E.10385
G1 X106.565 Y60.869 E.01314
G1 X106.565 Y64.181 E.10385
G1 X106.146 Y64.181 E.01314
G1 X106.146 Y60.869 E.10385
G1 X105.727 Y60.869 E.01314
G1 X105.727 Y64.181 E.10385
G1 X105.308 Y64.181 E.01314
G1 X105.308 Y60.869 E.10385
G1 X104.889 Y60.869 E.01314
G1 X104.889 Y64.181 E.10385
G1 X104.47 Y64.181 E.01314
G1 X104.47 Y60.869 E.10385
G1 X104.051 Y60.869 E.01314
G1 X104.051 Y64.35 E.10917
M204 S1000
;WIPE_START
G1 F8640
G1 X104.051 Y60.869 E-.80396
G1 X104.47 Y60.869 E-.09674
G1 X104.47 Y61.082 E-.0493
;WIPE_END
G1 E-.05 F2100
G1 Z.4 F720
G1 X153.321 Y64.52 F10800
G1 Z.2 F720
G1 E1 F2100
M204 S800
G1 F1200
G1 X135.899 Y64.52 E.54626
G1 X135.899 Y60.529 E.12513
G1 X153.321 Y60.529 E.54626
G1 X153.321 Y64.463 E.12336
M204 S1000
G1 X152.652 Y64.35 F10800
M204 S800
G1 F1200
G1 X152.652 Y60.869 E.10917
G1 X152.234 Y60.869 E.01314
G1 X152.234 Y64.181 E.10385
G1 X151.815 Y64.181 E.01314
G1 X151.815 Y60.869 E.10385
G1 X151.396 Y60.869 E.01314
G1 X151.396 Y64.181 E.10385
G1 X150.977 Y64.181 E.01314
G1 X150.977 Y60.869 E.10385
G1 X150.558 Y60.869 E.01314
G1 X150.558 Y64.181 E.10385
G1 X150.139 Y64.181 E.01314
G1 X150.139 Y60.869 E.10385
G1 X149.72 Y60.869 E.01314
G1 X149.72 Y64.181 E.10385
G1 X149.301 Y64.181 E.01314
G1 X149.301 Y60.869 E.10385
G1 X148.882 Y60.869 E.01314
G1 X148.882 Y64.181 E.10385
G1 X148.463 Y64.181 E.01314
G1 X148.463 Y60.869 E.10385
G1 X148.044 Y60.869 E.01314
G1 X148.044 Y64.181 E.10385
G1 X147.625 Y64.181 E.01314
G1 X147.625 Y60.869 E.10385
G1 X147.206 Y60.869 E.01314
G1 X147.206 Y64.181 E.10385
G1 X146.787 Y64.181 E.01314
G1 X146.787 Y60.869 E.10385
G1 X146.368 Y60.869 E.01314
G1 X146.368 Y64.181 E.10385
G1 X145.949 Y64.181 E.01314
G1 X145.949 Y60.869 E.10385
G1 X145.53 Y60.869 E.01314
G1 X145.53 Y64.181 E.10385
G1 X145.111 Y64.181 E.01314
G1 X145.111 Y60.869 E.10385
G1 X144.692 Y60.869 E.01314
G1 X144.692 Y64.181 E.10385
G1 X144.273 Y64.181 E.01314
G1 X144.273 Y60.869 E.10385
G1 X143.854 Y60.869 E.01314
G1 X143.854 Y64.181 E.10385
G1 X143.435 Y64.181 E.01314
G1 X143.435 Y60.869 E.10385
G1 X143.016 Y60.869 E.01314
G1 X143.016 Y64.181 E.10385
G1 X142.597 Y64.181 E.01314
G1 X142.597 Y60.869 E.10385
G1 X142.178 Y60.869 E.01314
G1 X142.178 Y64.181 E.10385
G1 X141.759 Y64.181 E.01314
G1 X141.759 Y60.869 E.10385
G1 X141.34 Y60.869 E.01314
G1 X141.34 Y64.181 E.10385
G1 X140.921 Y64.181 E.01314
G1 X140.921 Y60.869 E.10385
G1 X140.502 Y60.869 E.01314
G1 X140.502 Y64.181 E.10385
G1 X140.083 Y64.181 E.01314
M73 P0 R110
G1 X140.083 Y60.869 E.10385
G1 X139.664 Y60.869 E.01314
G1 X139.664 Y64.181 E.10385
G1 X139.245 Y64.181 E.01314
G1 X139.245 Y60.869 E.10385
G1 X138.826 Y60.869 E.01314
G1 X138.826 Y64.181 E.10385
G1 X138.407 Y64.181 E.01314
G1 X138.407 Y60.869 E.10385
G1 X137.988 Y60.869 E.01314
G1 X137.988 Y64.181 E.10385
G1 X137.569 Y64.181 E.01314
G1 X137.569 Y60.869 E.10385
G1 X137.15 Y60.869 E.01314
G1 X137.15 Y64.181 E.10385
G1 X136.731 Y64.181 E.01314
G1 X136.731 Y60.869 E.10385
G1 X136.312 Y60.869 E.01314
G1 X136.312 Y64.35 E.10917
M204 S1000
;WIPE_START
G1 F8640
G1 X136.312 Y60.869 E-.80396
G1 X136.731 Y60.869 E-.09674
G1 X136.731 Y61.082 E-.0493
;WIPE_END
G1 E-.05 F2100
G1 Z.4 F720
G1 X156.763 Y144.213 F10800
G1 Z.2 F720
G1 E1 F2100
M204 S800
;TYPE:Perimeter
;WIDTH:0.419999
G1 F1200
G1 X93.237 Y144.213 E1.9918
G1 X93.237 Y65.787 E2.45898
G1 X156.763 Y65.787 E1.9918
M73 Q0 S111
G1 X156.763 Y144.153 E2.4571
M204 S1000
G1 X157.14 Y144.59 F10800
M204 S800
;TYPE:External perimeter
G1 F1200
G1 X92.86 Y144.59 E2.01545
G1 X92.86 Y65.41 E2.48263
G1 X157.14 Y65.41 E2.01545
M73 P1 R110
M73 Q1 S111
G1 X157.14 Y144.53 E2.48075
M204 S1000
G1 X156.757 Y144.473 F10800
;WIPE_START
G1 F8640
G1 X153.026 Y144.534 E-.95
;WIPE_END
G1 E-.05 F2100
G1 Z.4 F720
G1 X155.886 Y65.9 F10800
G1 Z.2 F720
G1 E1 F2100
M204 S800
;TYPE:Solid infill
;WIDTH:0.420687
G1 F1200
G1 X156.48 Y66.494 E.02639
G1 X156.48 Y67.028 E.01678
G1 X155.522 Y66.07 E.04258
G1 X154.987 Y66.07 E.01678
G1 X156.48 Y67.563 E.06632
G1 X156.48 Y68.097 E.01678
G1 X154.453 Y66.07 E.09005
G1 X153.919 Y66.07 E.01678
G1 X156.48 Y68.631 E.11378
G1 X156.48 Y69.165 E.01678
G1 X153.385 Y66.07 E.13751
G1 X152.85 Y66.07 E.01678
G1 X156.48 Y69.7 E.16125
G1 X156.48 Y70.234 E.01678
G1 X152.316 Y66.07 E.18498
G1 X151.782 Y66.07 E.01678
G1 X156.48 Y70.768 E.20871
G1 X156.48 Y71.302 E.01678
G1 X151.248 Y66.07 E.23244
G1 X150.713 Y66.07 E.01678
G1 X156.48 Y71.837 E.25618
G1 X156.48 Y72.371 E.01678
G1 X150.179 Y66.07 E.27991
G1 X149.645 Y66.07 E.01678
G1 X156.48 Y72.905 E.30364
G1 X156.48 Y73.439 E.01678
G1 X149.111 Y66.07 E.32737
G1 X148.576 Y66.07 E.01678
G1 X156.48 Y73.974 E.3511
G1 X156.48 Y74.508 E.01678
G1 X148.042 Y66.07 E.37484
G1 X147.508 Y66.07 E.01678
G1 X156.48 Y75.042 E.39857
G1 X156.48 Y75.576 E.01678
G1 X146.974 Y66.07 E.4223
G1 X146.439 Y66.07 E.01678
G1 X156.48 Y76.111 E.44603
G1 X156.48 Y76.645 E.01678
G1 X145.905 Y66.07 E.46977
G1 X145.371 Y66.07 E.01678
G1 X156.48 Y77.179 E.4935
G1 X156.48 Y77.713 E.01678
G1 X144.837 Y66.07 E.51723
G1 X144.302 Y66.07 E.01678
G1 X156.48 Y78.248 E.54096
G1 X156.48 Y78.782 E.01678
G1 X143.768 Y66.07 E.5647
G1 X143.234 Y66.07 E.01678
G1 X156.48 Y79.316 E.58843
G1 X156.48 Y79.85 E.01678
G1 X142.7 Y66.07 E.61216
G1 X142.165 Y66.07 E.01678
G1 X156.48 Y80.385 E.63589
G1 X156.48 Y80.919 E.01678
G1 X141.631 Y66.07 E.65963
G1 X141.097 Y66.07 E.01678
G1 X156.48 Y81.453 E.68336
G1 X156.48 Y81.987 E.01678
G1 X140.563 Y66.07 E.70709
G1 X140.028 Y66.07 E.01678
G1 X156.48 Y82.522 E.73082
G1 X156.48 Y83.056 E.01678
G1 X139.494 Y66.07 E.75456
G1 X138.96 Y66.07 E.01678
G1 X156.48 Y83.59 E.77829
G1 X156.48 Y84.124 E.01678
G1 X138.426 Y66.07 E.80202
G1 X137.891 Y66.07 E.01678
G1 X156.48 Y84.659 E.82575
G1 X156.48 Y85.193 E.01678
G1 X137.357 Y66.07 E.84949
G1 X136.823 Y66.07 E.01678
G1 X156.48 Y85.727 E.87322
G1 X156.48 Y86.261 E.01678
M73 P1 R109
G1 X136.289 Y66.07 E.89695
G1 X135.755 Y66.07 E.01678
G1 X156.48 Y86.795 E.92068
G1 X156.48 Y87.33 E.01678
G1 X135.22 Y66.07 E.94442
G1 X134.686 Y66.07 E.01678
G1 X156.48 Y87.864 E.96815
G1 X156.48 Y88.398 E.01678
M73 Q1 S110
G1 X134.152 Y66.07 E.99188
G1 X133.618 Y66.07 E.01678
G1 X156.48 Y88.932 E1.01561
G1 X156.48 Y89.467 E.01678
G1 X133.083 Y66.07 E1.03935
G1 X132.549 Y66.07 E.01678
G1 X156.48 Y90.001 E1.06308
G1 X156.48 Y90.535 E.01678
G1 X132.015 Y66.07 E1.08681
G1 X131.481 Y66.07 E.01678
G1 X156.48 Y91.069 E1.11054
G1 X156.48 Y91.604 E.01678
G1 X130.946 Y66.07 E1.13427
G1 X130.412 Y66.07 E.01678
G1 X156.48 Y92.138 E1.15801
G1 X156.48 Y92.672 E.01678
G1 X129.878 Y66.07 E1.18174
G1 X129.344 Y66.07 E.01678
G1 X156.48 Y93.206 E1.20547
G1 X156.48 Y93.741 E.01678
G1 X128.809 Y66.07 E1.2292
G1 X128.275 Y66.07 E.01678
G1 X156.48 Y94.275 E1.25294
G1 X156.48 Y94.809 E.01678
G1 X127.741 Y66.07 E1.27667
G1 X127.207 Y66.07 E.01678
M73 P2 R109
G1 X156.48 Y95.343 E1.3004
G1 X156.48 Y95.878 E.01678
M73 Q2 S110
G1 X126.672 Y66.07 E1.32413
G1 X126.138 Y66.07 E.01678
G1 X156.48 Y96.412 E1.34787
G1 X156.48 Y96.946 E.01678
G1 X125.604 Y66.07 E1.3716
G1 X125.07 Y66.07 E.01678
G1 X156.48 Y97.48 E1.39533
G1 X156.48 Y98.015 E.01678
G1 X124.535 Y66.07 E1.41906
G1 X124.001 Y66.07 E.01678
G1 X156.48 Y98.549 E1.4428
G1 X156.48 Y99.083 E.01678
G1 X123.467 Y66.07 E1.46653
G1 X122.933 Y66.07 E.01678
G1 X156.48 Y99.617 E1.49026
G1 X156.48 Y100.152 E.01678
G1 X122.398 Y66.07 E1.51399
G1 X121.864 Y66.07 E.01678
G1 X156.48 Y100.686 E1.53773
G1 X156.48 Y101.22 E.01678
G1 X121.33 Y66.07 E1.56146
G1 X120.796 Y66.07 E.01678
G1 X156.48 Y101.754 E1.58519
G1 X156.48 Y102.289 E.01678
M73 P2 R108
G1 X120.261 Y66.07 E1.60892
G1 X119.727 Y66.07 E.01678
G1 X156.48 Y102.823 E1.63266
G1 X156.48 Y103.357 E.01678
M73 Q2 S109
G1 X119.193 Y66.07 E1.65639
G1 X118.659 Y66.07 E.01678
G1 X156.48 Y103.891 E1.68012
G1 X156.48 Y104.426 E.01678
G1 X118.124 Y66.07 E1.70385
G1 X117.59 Y66.07 E.01678
G1 X156.48 Y104.96 E1.72759
G1 X156.48 Y105.494 E.01678
G1 X117.056 Y66.07 E1.75132
G1 X116.522 Y66.07 E.01678
G1 X156.48 Y106.028 E1.77505
G1 X156.48 Y106.562 E.01678
G1 X115.988 Y66.07 E1.79878
G1 X115.453 Y66.07 E.01678
G1 X156.48 Y107.097 E1.82252
G1 X156.48 Y107.631 E.01678
G1 X114.919 Y66.07 E1.84625
G1 X114.385 Y66.07 E.01678
G1 X156.48 Y108.165 E1.86998
G1 X156.48 Y108.699 E.01678
G1 X113.851 Y66.07 E1.89371
G1 X113.316 Y66.07 E.01678
M73 P3 R108
G1 X156.48 Y109.234 E1.91744
G1 X156.48 Y109.768 E.01678
M73 Q3 S109
G1 X112.782 Y66.07 E1.94118
G1 X112.248 Y66.07 E.01678
G1 X156.48 Y110.302 E1.96491
G1 X156.48 Y110.836 E.01678
G1 X111.714 Y66.07 E1.98864
G1 X111.179 Y66.07 E.01678
G1 X156.48 Y111.371 E2.01237
G1 X156.48 Y111.905 E.01678
G1 X110.645 Y66.07 E2.03611
G1 X110.111 Y66.07 E.01678
G1 X156.48 Y112.439 E2.05984
G1 X156.48 Y112.973 E.01678
M73 P3 R107
G1 X109.577 Y66.07 E2.08357
G1 X109.042 Y66.07 E.01678
G1 X156.48 Y113.508 E2.1073
G1 X156.48 Y114.042 E.01678
M73 Q3 S108
G1 X108.508 Y66.07 E2.13104
G1 X107.974 Y66.07 E.01678
G1 X156.48 Y114.576 E2.15477
G1 X156.48 Y115.11 E.01678
G1 X107.44 Y66.07 E2.1785
G1 X106.905 Y66.07 E.01678
G1 X156.48 Y115.645 E2.20223
G1 X156.48 Y116.179 E.01678
G1 X106.371 Y66.07 E2.22597
G1 X105.837 Y66.07 E.01678
G1 X156.48 Y116.713 E2.2497
G1 X156.48 Y117.247 E.01678
G1 X105.303 Y66.07 E2.27343
G1 X104.768 Y66.07 E.01678
G1 X156.48 Y117.782 E2.29716
G1 X156.48 Y118.316 E.01678
G1 X104.234 Y66.07 E2.3209
G1 X103.7 Y66.07 E.01678
G1 X156.48 Y118.85 E2.34463
G1 X156.48 Y119.384 E.01678
G1 X103.166 Y66.07 E2.36836
G1 X102.631 Y66.07 E.01678
M73 P4 R107
M73 Q4 S108
G1 X156.48 Y119.919 E2.39209
G1 X156.48 Y120.453 E.01678
G1 X102.097 Y66.07 E2.41583
G1 X101.563 Y66.07 E.01678
G1 X156.48 Y120.987 E2.43956
G1 X156.48 Y121.521 E.01678
G1 X101.029 Y66.07 E2.46329
G1 X100.494 Y66.07 E.01678
M73 P4 R106
G1 X156.48 Y122.056 E2.48702
G1 X156.48 Y122.59 E.01678
M73 Q4 S107
G1 X99.96 Y66.07 E2.51076
G1 X99.426 Y66.07 E.01678
G1 X156.48 Y123.124 E2.53449
G1 X156.48 Y123.658 E.01678
G1 X98.892 Y66.07 E2.55822
G1 X98.357 Y66.07 E.01678
G1 X156.48 Y124.193 E2.58195
G1 X156.48 Y124.727 E.01678
G1 X97.823 Y66.07 E2.60568
G1 X97.289 Y66.07 E.01678
G1 X156.48 Y125.261 E2.62942
G1 X156.48 Y125.795 E.01678
G1 X96.755 Y66.07 E2.65315
G1 X96.221 Y66.07 E.01678
G1 X156.48 Y126.329 E2.67688
G1 X156.48 Y126.864 E.01678
G1 X95.686 Y66.07 E2.70061
G1 X95.152 Y66.07 E.01678
G1 X156.48 Y127.398 E2.72435
G1 X156.48 Y127.932 E.01678
G1 X94.618 Y66.07 E2.74808
G1 X94.084 Y66.07 E.01678
M73 P5 R106
G1 X156.48 Y128.466 E2.77181
G1 X156.48 Y129.001 E.01678
M73 Q5 S107
G1 X93.549 Y66.07 E2.79554
G1 X93.52 Y66.07 E.00092
M73 P5 R105
G1 X93.52 Y66.575 E.01586
G1 X156.48 Y129.535 E2.79685
G1 X156.48 Y130.069 E.01678
M73 Q5 S106
G1 X93.52 Y67.109 E2.79685
G1 X93.52 Y67.643 E.01678
G1 X156.48 Y130.603 E2.79685
G1 X156.48 Y131.138 E.01678
G1 X93.52 Y68.177 E2.79685
G1 X93.52 Y68.712 E.01678
G1 X156.48 Y131.672 E2.79685
G1 X156.48 Y132.206 E.01678
G1 X93.52 Y69.246 E2.79685
G1 X93.52 Y69.78 E.01678
G1 X156.48 Y132.74 E2.79685
G1 X156.48 Y133.275 E.01678
G1 X93.52 Y70.314 E2.79685
G1 X93.52 Y70.849 E.01678
G1 X156.48 Y133.809 E2.79685
G1 X156.48 Y134.343 E.01678
G1 X93.52 Y71.383 E2.79685
G1 X93.52 Y71.917 E.01678
G1 X156.48 Y134.877 E2.79685
G1 X156.48 Y135.412 E.01678
G1 X93.52 Y72.451 E2.79685
G1 X93.52 Y72.986 E.01678
G1 X156.48 Y135.946 E2.79685
